**kern	**text	**kern	**text	**kern	**text	**text	**kern	**text	**text	**kern	**text	**text	**kern	**text	**text	**kern	**text	**text
*part7	*part7	*part6	*part6	*part5	*part5	*part5	*part4	*part4	*part4	*part3	*part3	*part3	*part2	*part2	*part2	*part1	*part1	*part1
*staff7	*staff7	*staff6	*staff6	*staff5	*staff5	*staff5	*staff4	*staff4	*staff4	*staff3	*staff3	*staff3	*staff2	*staff2	*staff2	*staff1	*staff1	*staff1
*I"6th	*	*I"5th	*	*I"4th	*	*	*I"2nd	*	*	*I"1st	*	*	*I"3rd	*	*	*I"Melody	*	*
*I'Pno.	*	*I'Pno.	*	*I'Pno.	*	*	*I'Pno.	*	*	*I'Pno.	*	*	*I'Pno.	*	*	*I'Melody	*	*
*clefF4	*	*clefF4	*	*clefG2	*	*	*clefG2	*	*	*clefG2	*	*	*clefG2	*	*	*clefG2	*	*
*k[b-e-a-]	*	*k[b-e-a-]	*	*k[b-e-a-]	*	*	*k[b-e-a-]	*	*	*k[b-e-a-]	*	*	*k[b-e-a-]	*	*	*k[b-e-a-]	*	*
*M4/4	*	*M4/4	*	*M4/4	*	*	*M4/4	*	*	*M4/4	*	*	*M4/4	*	*	*M4/4	*	*
*MM200	*	*MM200	*	*MM200	*	*	*MM200	*	*	*MM200	*	*	*MM200	*	*	*MM200	*	*
=1	=1	=1	=1	=1	=1	=1	=1	=1	=1	=1	=1	=1	=1	=1	=1	=1	=1	=1
2c	.	8AA-L	.	2c	Oh-	.	8e-L	.	.	8ccL	.	.	1r	.	.	1r	.	.
.	.	8AA-J	.	.	.	.	8e-J	.	.	8ccJ	.	.	.	.	.	.	.	.
.	.	8r	.	.	.	.	8r	.	.	8r	.	.	.	.	.	.	.	.
.	.	8AA-	.	.	.	.	8e-	.	.	8cc	.	.	.	.	.	.	.	.
4c	.	8r	.	4g	.	.	8r	.	.	8r	.	.	.	.	.	.	.	.
.	.	8AA-	.	.	.	.	8e-	.	.	8cc	.	.	.	.	.	.	.	.
4r	.	8r	.	4r	.	.	8r	.	.	8r	.	.	.	.	.	.	.	.
.	.	8AA-	.	.	.	.	8e-	.	.	8cc	.	.	.	.	.	.	.	.
=2	=2	=2	=2	=2	=2	=2	=2	=2	=2	=2	=2	=2	=2	=2	=2	=2	=2	=2
4d	.	8AA-L	.	4f	.	.	8e-L	.	.	8ccL	.	.	1r	.	.	1r	.	.
.	.	8AA-J	.	.	.	.	8e-J	.	.	8ccJ	.	.	.	.	.	.	.	.
4B-	.	8r	.	4d	.	.	8r	.	.	8r	.	.	.	.	.	.	.	.
.	.	8AA-	.	.	.	.	8e-	.	.	8cc	.	.	.	.	.	.	.	.
2B-	.	8r	.	2d	.	.	8r	.	.	8r	.	.	.	.	.	.	.	.
.	.	8AA-	.	.	.	.	8e-	.	.	8cc	.	.	.	.	.	.	.	.
.	.	8r	.	.	.	.	8r	.	.	8r	.	.	.	.	.	.	.	.
.	.	8AA-	.	.	.	.	8e-	.	.	8cc	.	.	.	.	.	.	.	.
=3	=3	=3	=3	=3	=3	=3	=3	=3	=3	=3	=3	=3	=3	=3	=3	=3	=3	=3
4c	.	8BB-L	.	4e-	.	.	8fL	.	.	8ddL	.	.	1r	.	.	1r	.	.
.	.	8BB-J	.	.	.	.	8fJ	.	.	8ddJ	.	.	.	.	.	.	.	.
4r	.	8r	.	4r	.	.	8r	.	.	8r	.	.	.	.	.	.	.	.
.	.	8BB-	.	.	.	.	8f	.	.	8dd	.	.	.	.	.	.	.	.
4e-	.	8r	.	4g	.	.	8r	.	.	8r	.	.	.	.	.	.	.	.
.	.	8BB-	.	.	.	.	8f	.	.	8dd	.	.	.	.	.	.	.	.
4r	.	8r	.	4r	.	.	8r	.	.	8r	.	.	.	.	.	.	.	.
.	.	8BB-	.	.	.	.	8f	.	.	8dd	.	.	.	.	.	.	.	.
=4	=4	=4	=4	=4	=4	=4	=4	=4	=4	=4	=4	=4	=4	=4	=4	=4	=4	=4
4d	.	8BBnL	.	4f	.	.	8fL	.	.	8ddL	.	.	1r	.	.	1r	.	.
.	.	8BBJ	.	.	.	.	8fJ	.	.	8ddJ	.	.	.	.	.	.	.	.
4B-	.	8r	.	4d	.	.	8r	.	.	8r	.	.	.	.	.	.	.	.
.	.	8BB	.	.	.	.	8f	.	.	8dd	.	.	.	.	.	.	.	.
2B-	.	8r	.	2d	.	.	8r	.	.	8r	.	.	.	.	.	.	.	.
.	.	8BB	.	.	.	.	8f	.	.	8dd	.	.	.	.	.	.	.	.
.	.	8r	.	.	.	.	8r	.	.	8r	.	.	.	.	.	.	.	.
.	.	8BB	.	.	.	.	8f	.	.	8dd	.	.	.	.	.	.	.	.
=5	=5	=5	=5	=5	=5	=5	=5	=5	=5	=5	=5	=5	=5	=5	=5	=5	=5	=5
4c	.	8CL	.	4e-	.	.	8gL	.	.	8ee-L	.	.	1r	.	.	1r	.	.
.	.	8CJ	.	.	.	.	8gJ	.	.	8ee-J	.	.	.	.	.	.	.	.
4r	.	8r	.	4r	.	.	8r	.	.	8r	.	.	.	.	.	.	.	.
.	.	8C	.	.	.	.	8g	.	.	8ee-	.	.	.	.	.	.	.	.
4e-	.	8r	.	4g	.	.	8r	.	.	8r	.	.	.	.	.	.	.	.
.	.	8C	.	.	.	.	8g	.	.	8ee-	.	.	.	.	.	.	.	.
4r	.	8r	.	4r	.	.	8r	.	.	8r	.	.	.	.	.	.	.	.
.	.	8C	.	.	.	.	8g	.	.	8ee-	.	.	.	.	.	.	.	.
=6	=6	=6	=6	=6	=6	=6	=6	=6	=6	=6	=6	=6	=6	=6	=6	=6	=6	=6
4d	.	8CL	.	4f	.	.	8gL	.	.	8ee-L	.	.	1r	.	.	1r	.	.
.	.	8CJ	.	.	.	.	8gJ	.	.	8ee-J	.	.	.	.	.	.	.	.
4A-	.	8r	.	4d	.	.	8r	.	.	8r	.	.	.	.	.	.	.	.
.	.	8C	.	.	.	.	8g	.	.	8ee-	.	.	.	.	.	.	.	.
2A-	.	8r	.	2d	.	.	8r	.	.	8r	.	.	.	.	.	.	.	.
.	.	8C	.	.	.	.	8g	.	.	8ee-	.	.	.	.	.	.	.	.
.	.	8r	.	.	.	.	8r	.	.	8r	.	.	.	.	.	.	.	.
.	.	8C	.	.	.	.	8g	.	.	8ee-	.	.	.	.	.	.	.	.
=7	=7	=7	=7	=7	=7	=7	=7	=7	=7	=7	=7	=7	=7	=7	=7	=7	=7	=7
[1G	.	8E-L	.	[1e-	oh	.	8b-L	.	.	8ee-L	.	.	1r	.	.	1r	.	.
.	.	8E-J	.	.	.	.	8b-J	.	.	8ee-J	.	.	.	.	.	.	.	.
.	.	8r	.	.	.	.	8r	.	.	8r	.	.	.	.	.	.	.	.
.	.	8E-	.	.	.	.	8b-	.	.	8ee-	.	.	.	.	.	.	.	.
.	.	8r	.	.	.	.	8r	.	.	8r	.	.	.	.	.	.	.	.
.	.	8E-	.	.	.	.	8b-	.	.	8ee-	.	.	.	.	.	.	.	.
.	.	8r	.	.	.	.	8r	.	.	8r	.	.	.	.	.	.	.	.
.	.	8E-	.	.	.	.	8b-	.	.	8ee-	.	.	.	.	.	.	.	.
=8	=8	=8	=8	=8	=8	=8	=8	=8	=8	=8	=8	=8	=8	=8	=8	=8	=8	=8
4G]	.	8E-L	.	4e-]	.	.	1b-	.	.	1ee-	.	.	1r	.	.	1r	.	.
.	.	8E-J	.	.	.	.	.	.	.	.	.	.	.	.	.	.	.	.
4r	.	8r	.	4r	.	.	.	.	.	.	.	.	.	.	.	.	.	.
.	.	8E-	.	.	.	.	.	.	.	.	.	.	.	.	.	.	.	.
2r	.	2r	.	2r	.	.	.	.	.	.	.	.	.	.	.	.	.	.
=9	=9	=9	=9	=9	=9	=9	=9	=9	=9	=9	=9	=9	=9	=9	=9	=9	=9	=9
8A-L	.	8AA-L	.	8cL	.	.	8e-L	.	.	8b-L	.	.	1r	.	.	1r	.	.
8A-J	.	8AA-J	.	8dJ	.	.	8e-J	.	.	8b-J	.	.	.	.	.	.	.	.
8r	.	8r	.	8r	.	.	8r	.	.	8r	.	.	.	.	.	.	.	.
[8B-	.	[8BB-	.	8e-	.	.	[8f	.	.	[8b-	.	.	.	.	.	.	.	.
8B-L]	.	8BB-L]	.	8r	.	.	8fL]	.	.	8b-L]	.	.	.	.	.	.	.	.
8B-J	.	8BB-J	.	8b-	.	.	8fJ	.	.	8b-J	.	.	.	.	.	.	.	.
8r	.	8r	.	8r	.	.	8r	.	.	8r	.	.	.	.	.	.	.	.
8c	.	[8C	.	8f	.	.	[8g	.	.	[8ee-	.	.	.	.	.	.	.	.
=10	=10	=10	=10	=10	=10	=10	=10	=10	=10	=10	=10	=10	=10	=10	=10	=10	=10	=10
8cL	.	8CL]	.	8r	.	.	8gL]	.	.	8ee-L]	.	.	1r	.	.	1r	.	.
8cJ	.	8CJ	.	8g	.	.	8gJ	.	.	8ee-J	.	.	.	.	.	.	.	.
8r	.	8r	.	8r	.	.	8r	.	.	8r	.	.	.	.	.	.	.	.
[8e-	.	[8E-	.	8c	.	.	[8b-	.	.	[8ee-	.	.	.	.	.	.	.	.
8e-L]	.	8E-L]	.	8r	.	.	8b-L]	.	.	8ee-L]	.	.	.	.	.	.	.	.
8e-J	.	8E-J	.	8cL	.	.	8b-J	.	.	8ee-J	.	.	.	.	.	.	.	.
4e-	.	4E-	.	8d	.	.	4b-	.	.	4ee-	.	.	.	.	.	.	.	.
.	.	.	.	8e-J	.	.	.	.	.	.	.	.	.	.	.	.	.	.
=11	=11	=11	=11	=11	=11	=11	=11	=11	=11	=11	=11	=11	=11	=11	=11	=11	=11	=11
8GL	.	8GGL	.	8r	.	.	8dL	.	.	8bnL	.	.	1r	.	.	1r	.	.
8GJ	.	8GGJ	.	8fL	.	.	8dJ	.	.	8bJ	.	.	.	.	.	.	.	.
8r	.	8r	.	8g	.	.	8r	.	.	8r	.	.	.	.	.	.	.	.
[8Bn	.	[8BBn	.	[8a-J	.	.	[8f	.	.	[8dd	.	.	.	.	.	.	.	.
8BL]	.	8BBL]	.	8a-L]	.	.	8fL]	.	.	8ddL]	.	.	.	.	.	.	.	.
8BJ	.	8BBJ	.	8g	.	.	8fJ	.	.	8ddJ	.	.	.	.	.	.	.	.
8r	.	8r	.	8f	.	.	8r	.	.	8r	.	.	.	.	.	.	.	.
8c	.	[8C	.	8e-J	.	.	[8g	.	.	[8ee-	.	.	.	.	.	.	.	.
=12	=12	=12	=12	=12	=12	=12	=12	=12	=12	=12	=12	=12	=12	=12	=12	=12	=12	=12
8cL	.	8CL]	.	8fL	.	.	8gL]	.	.	8ee-L]	.	.	1r	.	.	1r	.	.
8c	.	8CJ	.	8f	.	.	8g	.	.	8ee-	.	.	.	.	.	.	.	.
8c	.	8r	.	8f	.	.	8g	.	.	8ee-	.	.	.	.	.	.	.	.
[8cJ	.	[8C	.	[8gJ	.	.	[8gJ	.	.	[8ee-J	.	.	.	.	.	.	.	.
8cL]	.	8CL]	.	8gL]	.	.	8gL]	.	.	8ee-L]	.	.	.	.	.	.	.	.
8c	.	8C	.	8g	.	.	8g	.	.	8ee-	.	.	.	.	.	.	.	.
8c	.	8C	.	8g	.	.	8g	.	.	8ee-	.	.	.	.	.	.	.	.
8cJ	.	8CJ	.	8gJ	.	.	8gJ	.	.	8ee-J	.	.	.	.	.	.	.	.
=13	=13	=13	=13	=13	=13	=13	=13	=13	=13	=13	=13	=13	=13	=13	=13	=13	=13	=13
8A-L	.	8AA-L	.	8cL	.	.	8e-L	.	.	8b-L	.	.	1r	.	.	1r	.	.
8A-J	.	8AA-J	.	8dJ	.	.	8e-J	.	.	8b-J	.	.	.	.	.	.	.	.
8r	.	8r	.	8r	.	.	8r	.	.	8r	.	.	.	.	.	.	.	.
[8B-	.	[8BB-	.	8e-	.	.	[8f	.	.	[8b-	.	.	.	.	.	.	.	.
8B-L]	.	8BB-L]	.	8r	.	.	8fL]	.	.	8b-L]	.	.	.	.	.	.	.	.
8B-J	.	8BB-J	.	8b-	.	.	8fJ	.	.	8b-J	.	.	.	.	.	.	.	.
8r	.	8r	.	8r	.	.	8r	.	.	8r	.	.	.	.	.	.	.	.
8c	.	[8C	.	8f	.	.	[8g	.	.	[8ee-	.	.	.	.	.	.	.	.
=14	=14	=14	=14	=14	=14	=14	=14	=14	=14	=14	=14	=14	=14	=14	=14	=14	=14	=14
8cL	.	8CL]	.	8r	.	.	8gL]	.	.	8ee-L]	.	.	1r	.	.	1r	.	.
8cJ	.	8CJ	.	8g	.	.	8gJ	.	.	8ee-J	.	.	.	.	.	.	.	.
8r	.	8r	.	8r	.	.	8r	.	.	8r	.	.	.	.	.	.	.	.
[8e-	.	[8E-	.	8c	.	.	[8b-	.	.	[8ee-	.	.	.	.	.	.	.	.
8e-L]	.	8E-L]	.	8r	.	.	8b-L]	.	.	8ee-L]	.	.	.	.	.	.	.	.
8e-J	.	8E-J	.	8cL	.	.	8b-J	.	.	8ee-J	.	.	.	.	.	.	.	.
4e-	.	4E-	.	8d	.	.	4b-	.	.	4ee-	.	.	.	.	.	.	.	.
.	.	.	.	8e-J	.	.	.	.	.	.	.	.	.	.	.	.	.	.
=15	=15	=15	=15	=15	=15	=15	=15	=15	=15	=15	=15	=15	=15	=15	=15	=15	=15	=15
8GL	.	8GGL	.	8r	.	.	8dL	.	.	8bnL	.	.	1r	.	.	1r	.	.
8GJ	.	8GGJ	.	8fL	.	.	8dJ	.	.	8bJ	.	.	.	.	.	.	.	.
8r	.	8r	.	8g	.	.	8r	.	.	8r	.	.	.	.	.	.	.	.
[8Bn	.	[8BBn	.	[8a-J	.	.	[8f	.	.	[8dd	.	.	.	.	.	.	.	.
8BL]	.	8BBL]	.	8a-L]	.	.	8fL]	.	.	8ddL]	.	.	.	.	.	.	.	.
8BJ	.	8BBJ	.	8g	.	.	8fJ	.	.	8ddJ	.	.	.	.	.	.	.	.
8r	.	8r	.	8f	.	.	8r	.	.	8r	.	.	.	.	.	.	.	.
[8c	.	[8C	.	8e-J	.	.	[8g	.	.	[8ee-	.	.	.	.	.	.	.	.
=16	=16	=16	=16	=16	=16	=16	=16	=16	=16	=16	=16	=16	=16	=16	=16	=16	=16	=16
8cL]	.	8CL]	.	8fL	.	.	8gL]	.	.	8ee-L]	.	.	1r	.	.	4r	.	.
8c	.	8CJ	.	8f	.	.	8g	.	.	8ee-	.	.	.	.	.	.	.	.
8cJ	.	8r	.	8f	.	.	8g	.	.	8ee-	.	.	.	.	.	8r	.	.
4r	.	[8C	.	[8e-J	.	.	[8gJ	.	.	[8ee-J	.	.	.	.	.	4r	.	.
.	.	8CL]	.	8e-L]	.	.	8gL]	.	.	8ee-L]	.	.	.	.	.	.	.	.
4B-	いつ	8CJ	.	8e-	.	.	8g	.	.	8ee-	.	.	.	.	.	4B-	いつ	.
.	.	4FF	.	8e-	.	.	8g	.	.	8ee-	.	.	.	.	.	.	.	.
8c	か	.	.	8e-J	.	.	8gJ	.	.	8ee-J	.	.	.	.	.	8c	か	.
=17	=17	=17	=17	=17	=17	=17	=17	=17	=17	=17	=17	=17	=17	=17	=17	=17	=17	=17
4e-	僕	1C	.	4c	.	.	1b-	.	.	1ee-	.	.	1r	.	.	4e-	僕	.
8dL	ら	.	.	8r	.	.	.	.	.	.	.	.	.	.	.	8dL	ら	.
8B-J	の	.	.	8e-	.	.	.	.	.	.	.	.	.	.	.	8B-J	の	.
8B-L	う	.	.	8r	.	.	.	.	.	.	.	.	.	.	.	8B-L	う	.
8B-	え	.	.	8d	.	.	.	.	.	.	.	.	.	.	.	8B-	え	.
8c	を	.	.	8r	.	.	.	.	.	.	.	.	.	.	.	8c	を	.
8cJ	ス	.	.	8d	.	.	.	.	.	.	.	.	.	.	.	8cJ	ス	.
=18	=18	=18	=18	=18	=18	=18	=18	=18	=18	=18	=18	=18	=18	=18	=18	=18	=18	=18
8.B-L	レ	1FF	.	4c	.	.	1b-	.	.	1ff	.	.	1r	.	.	8.B-L	レ	.
16B-Jk	ス	.	.	.	.	.	.	.	.	.	.	.	.	.	.	16B-Jk	ス	.
8A-L	レ	.	.	8r	.	.	.	.	.	.	.	.	.	.	.	8A-L	レ	.
8GJ	に	.	.	8e-	.	.	.	.	.	.	.	.	.	.	.	8GJ	に	.
8r	.	.	.	8r	.	.	.	.	.	.	.	.	.	.	.	8r	.	.
4G	通	.	.	8d	.	.	.	.	.	.	.	.	.	.	.	4G	通	.
.	.	.	.	8r	.	.	.	.	.	.	.	.	.	.	.	.	.	.
8G	り	.	.	8d	.	.	.	.	.	.	.	.	.	.	.	8G	り	.
=19	=19	=19	=19	=19	=19	=19	=19	=19	=19	=19	=19	=19	=19	=19	=19	=19	=19	=19
8FL	過	1BB-	.	4c	.	.	1b-	.	.	1dd	.	.	1r	.	.	8FL	過	.
8FJ	ぎ	.	.	.	.	.	.	.	.	.	.	.	.	.	.	8FJ	ぎ	.
4E-	ていっ	.	.	8r	.	.	.	.	.	.	.	.	.	.	.	4E-	ていっ	.
.	.	.	.	8e-	.	.	.	.	.	.	.	.	.	.	.	.	.	.
8FL	た	.	.	8r	.	.	.	.	.	.	.	.	.	.	.	8FL	た	.
8FJ	あ	.	.	8d	.	.	.	.	.	.	.	.	.	.	.	8FJ	あ	.
8.B-L	の	.	.	8r	.	.	.	.	.	.	.	.	.	.	.	8.B-L	の	.
.	.	.	.	8d	.	.	.	.	.	.	.	.	.	.	.	.	.	.
16B-Jk	飛	.	.	.	.	.	.	.	.	.	.	.	.	.	.	16B-Jk	飛	.
=20	=20	=20	=20	=20	=20	=20	=20	=20	=20	=20	=20	=20	=20	=20	=20	=20	=20	=20
4A-	行	1C	.	4c	.	.	1b-	.	.	1ee-	.	.	1r	.	.	4A-	行	.
8GL	機	.	.	8r	.	.	.	.	.	.	.	.	.	.	.	8GL	機	.
8GJ	を	.	.	8e-	.	.	.	.	.	.	.	.	.	.	.	8GJ	を	.
8r	.	.	.	8r	.	.	.	.	.	.	.	.	.	.	.	8r	.	.
8GL	不	.	.	8d	.	.	.	.	.	.	.	.	.	.	.	8GL	不	.
8B-	思	.	.	8r	.	.	.	.	.	.	.	.	.	.	.	8B-	思	.
8cJ	議	.	.	8d	.	.	.	.	.	.	.	.	.	.	.	8cJ	議	.
=21	=21	=21	=21	=21	=21	=21	=21	=21	=21	=21	=21	=21	=21	=21	=21	=21	=21	=21
4e-	な	1C	.	4c	.	.	1b-	.	.	1ee-	.	.	1r	.	.	4e-	な	.
8dL	く	.	.	8r	.	.	.	.	.	.	.	.	.	.	.	8dL	く	.
[8B-J	ら	.	.	8e-	.	.	.	.	.	.	.	.	.	.	.	[8B-J	ら	.
8B-]	い	.	.	8r	.	.	.	.	.	.	.	.	.	.	.	8B-]	い	.
4c	に	.	.	8d	.	.	.	.	.	.	.	.	.	.	.	4c	に	.
.	.	.	.	8r	.	.	.	.	.	.	.	.	.	.	.	.	.	.
8c	お	.	.	8d	.	.	.	.	.	.	.	.	.	.	.	8c	お	.
=22	=22	=22	=22	=22	=22	=22	=22	=22	=22	=22	=22	=22	=22	=22	=22	=22	=22	=22
4B-	ぼえ	1FF	.	4c	.	.	1b-	.	.	1ff	.	.	1r	.	.	4B-	ぼえ	.
8A-L	て	.	.	8r	.	.	.	.	.	.	.	.	.	.	.	8A-L	て	.
8GJ	る	.	.	8e-	.	.	.	.	.	.	.	.	.	.	.	8GJ	る	.
8r	.	.	.	8r	.	.	.	.	.	.	.	.	.	.	.	8r	.	.
8GL	意	.	.	8d	.	.	.	.	.	.	.	.	.	.	.	8GL	意	.
8G	味	.	.	8r	.	.	.	.	.	.	.	.	.	.	.	8G	味	.
8GJ	も	.	.	8d	.	.	.	.	.	.	.	.	.	.	.	8GJ	も	.
=23	=23	=23	=23	=23	=23	=23	=23	=23	=23	=23	=23	=23	=23	=23	=23	=23	=23	=23
4F	ない	1BB-	.	4c	.	.	1b-	.	.	1dd	.	.	1r	.	.	4F	ない	.
8GL	の	.	.	8r	.	.	.	.	.	.	.	.	.	.	.	8GL	の	.
[8A-J	に	.	.	8e-	.	.	.	.	.	.	.	.	.	.	.	[8A-J	に	.
8A-L]	.	.	.	8r	.	.	.	.	.	.	.	.	.	.	.	8A-L]	.	.
8G	な	.	.	8d	.	.	.	.	.	.	.	.	.	.	.	8G	な	.
8F	ぜ	.	.	8r	.	.	.	.	.	.	.	.	.	.	.	8F	ぜ	.
[8E-J	か	.	.	8d	.	.	.	.	.	.	.	.	.	.	.	[8E-J	か	.
=24	=24	=24	=24	=24	=24	=24	=24	=24	=24	=24	=24	=24	=24	=24	=24	=24	=24	=24
4E-]	.	1C	.	4c	.	.	1b-	.	.	1ee-	.	.	1r	.	.	4E-]	.	.
4r	.	.	.	8r	.	.	.	.	.	.	.	.	.	.	.	4r	.	.
.	.	.	.	8e-	.	.	.	.	.	.	.	.	.	.	.	.	.	.
8r	.	.	.	8r	.	.	.	.	.	.	.	.	.	.	.	8r	.	.
8GL	不	.	.	8d	.	.	.	.	.	.	.	.	.	.	.	8GL	不	.
8B-	甲	.	.	8r	.	.	.	.	.	.	.	.	.	.	.	8B-	甲	.
8cJ	斐	.	.	8d	.	.	.	.	.	.	.	.	.	.	.	8cJ	斐	.
=25	=25	=25	=25	=25	=25	=25	=25	=25	=25	=25	=25	=25	=25	=25	=25	=25	=25	=25
4e-	なく	1C	.	4c	.	.	1b-	.	.	1ee-	.	.	1r	.	.	4e-	なく	.
8dL	て	.	.	8r	.	.	.	.	.	.	.	.	.	.	.	8dL	て	.
[8B-J	泣い	.	.	8e-	.	.	.	.	.	.	.	.	.	.	.	[8B-J	泣い	.
8B-]	.	.	.	8r	.	.	.	.	.	.	.	.	.	.	.	8B-]	.	.
4c	た	.	.	8d	.	.	.	.	.	.	.	.	.	.	.	4c	た	.
.	.	.	.	8r	.	.	.	.	.	.	.	.	.	.	.	.	.	.
8c	日	.	.	8d	.	.	.	.	.	.	.	.	.	.	.	8c	日	.
=26	=26	=26	=26	=26	=26	=26	=26	=26	=26	=26	=26	=26	=26	=26	=26	=26	=26	=26
8B-L	の	1FF	.	4c	.	.	1b-	.	.	1ff	.	.	1r	.	.	8B-L	の	.
8B-	よ	.	.	.	.	.	.	.	.	.	.	.	.	.	.	8B-	よ	.
8A-	る	.	.	8r	.	.	.	.	.	.	.	.	.	.	.	8A-	る	.
8GJ	に	.	.	8e-	.	.	.	.	.	.	.	.	.	.	.	8GJ	に	.
8r	.	.	.	8r	.	.	.	.	.	.	.	.	.	.	.	8r	.	.
8GL	た	.	.	8d	.	.	.	.	.	.	.	.	.	.	.	8GL	た	.
8G	だ	.	.	8r	.	.	.	.	.	.	.	.	.	.	.	8G	だ	.
8GJ	つ	.	.	8d	.	.	.	.	.	.	.	.	.	.	.	8GJ	つ	.
=27	=27	=27	=27	=27	=27	=27	=27	=27	=27	=27	=27	=27	=27	=27	=27	=27	=27	=27
4F	よく	1BB-	.	4c	.	.	1b-	.	.	1dd	.	.	1r	.	.	4F	よく	.
8E-L	な	.	.	8r	.	.	.	.	.	.	.	.	.	.	.	8E-L	な	.
8E-J	り	.	.	8e-	.	.	.	.	.	.	.	.	.	.	.	8E-J	り	.
4F	たい	.	.	8r	.	.	.	.	.	.	.	.	.	.	.	4F	たい	.
.	.	.	.	8d	.	.	.	.	.	.	.	.	.	.	.	.	.	.
8B-L	と	.	.	8r	.	.	.	.	.	.	.	.	.	.	.	8B-L	と	.
8B-J	ね	.	.	8d	.	.	.	.	.	.	.	.	.	.	.	8B-J	ね	.
=28	=28	=28	=28	=28	=28	=28	=28	=28	=28	=28	=28	=28	=28	=28	=28	=28	=28	=28
4A-	がっ	1C	.	4c	.	.	1b-	.	.	1ee-	.	.	1r	.	.	4A-	がっ	.
8GL	て	.	.	8r	.	.	.	.	.	.	.	.	.	.	.	8GL	て	.
8GJ	た	.	.	8e-	.	.	.	.	.	.	.	.	.	.	.	8GJ	た	.
8r	.	.	.	8r	.	.	.	.	.	.	.	.	.	.	.	8r	.	.
8GL	そ	.	.	8d	.	.	.	.	.	.	.	.	.	.	.	8GL	そ	.
8B-	の	.	.	8r	.	.	.	.	.	.	.	.	.	.	.	8B-	の	.
8cJ	た	.	.	8d	.	.	.	.	.	.	.	.	.	.	.	8cJ	た	.
=29	=29	=29	=29	=29	=29	=29	=29	=29	=29	=29	=29	=29	=29	=29	=29	=29	=29	=29
4e-	め	1C	.	4c	.	.	1b-	.	.	1ee-	.	.	1r	.	.	4e-	め	.
8dL	に	.	.	8r	.	.	.	.	.	.	.	.	.	.	.	8dL	に	.
[8B-J	必	.	.	8e-	.	.	.	.	.	.	.	.	.	.	.	[8B-J	必	.
8B-]	.	.	.	8r	.	.	.	.	.	.	.	.	.	.	.	8B-]	.	.
4B-	要	.	.	8d	.	.	.	.	.	.	.	.	.	.	.	4B-	要	.
.	.	.	.	8r	.	.	.	.	.	.	.	.	.	.	.	.	.	.
8c	な	.	.	8d	.	.	.	.	.	.	.	.	.	.	.	8c	な	.
=30	=30	=30	=30	=30	=30	=30	=30	=30	=30	=30	=30	=30	=30	=30	=30	=30	=30	=30
4B-	勇	1FF	.	4c	.	.	1b-	.	.	1ff	.	.	1r	.	.	4B-	勇	.
8A-L	気	.	.	8r	.	.	.	.	.	.	.	.	.	.	.	8A-L	気	.
8GJ	を	.	.	8e-	.	.	.	.	.	.	.	.	.	.	.	8GJ	を	.
8r	.	.	.	8r	.	.	.	.	.	.	.	.	.	.	.	8r	.	.
8GL	さ	.	.	8d	.	.	.	.	.	.	.	.	.	.	.	8GL	さ	.
8G	が	.	.	8r	.	.	.	.	.	.	.	.	.	.	.	8G	が	.
8GJ	し	.	.	8d	.	.	.	.	.	.	.	.	.	.	.	8GJ	し	.
=31	=31	=31	=31	=31	=31	=31	=31	=31	=31	=31	=31	=31	=31	=31	=31	=31	=31	=31
4F	も	1BB-	.	4c	.	.	1b-	.	.	1dd	.	.	1r	.	.	4F	も	.
8GL	と	.	.	8r	.	.	.	.	.	.	.	.	.	.	.	8GL	と	.
[8A-J	め	.	.	8e-	.	.	.	.	.	.	.	.	.	.	.	[8A-J	め	.
8A-L]	.	.	.	8r	.	.	.	.	.	.	.	.	.	.	.	8A-L]	.	.
8G	て	.	.	8d	.	.	.	.	.	.	.	.	.	.	.	8G	て	.
8F	い	.	.	8r	.	.	.	.	.	.	.	.	.	.	.	8F	い	.
[8E-J	た	.	.	8d	.	.	.	.	.	.	.	.	.	.	.	[8E-J	た	.
=32	=32	=32	=32	=32	=32	=32	=32	=32	=32	=32	=32	=32	=32	=32	=32	=32	=32	=32
4E-]	.	1C	.	4c	.	.	1b-	.	.	1ee-	.	.	2r	.	.	4E-]	.	.
4r	.	.	.	8r	.	.	.	.	.	.	.	.	.	.	.	4r	.	.
.	.	.	.	8e-	.	.	.	.	.	.	.	.	.	.	.	.	.	.
2r	.	.	.	8r	.	.	.	.	.	.	.	.	4r	.	.	4r	.	.
.	.	.	.	8d	.	.	.	.	.	.	.	.	.	.	.	.	.	.
.	.	.	.	8r	.	.	.	.	.	.	.	.	4E-	.	残	4E-	.	残
.	.	.	.	8d	.	.	.	.	.	.	.	.	.	.	.	.	.	.
=33	=33	=33	=33	=33	=33	=33	=33	=33	=33	=33	=33	=33	=33	=33	=33	=33	=33	=33
1r	.	4FF	.	4F	.	.	4A-	.	.	4a-	.	.	4E-	.	酷	4E-	.	酷
.	.	8r	.	8r	.	.	8r	.	.	4e-	.	.	4B-	.	な	4B-	.	な
.	.	[8FF	.	[8F	.	.	[8A-	.	.	.	.	.	.	.	.	.	.	.
.	.	8FFL]	.	8FL]	.	.	8A-]	.	.	8fL	.	.	4r	.	.	4r	.	.
.	.	8FFJ	.	8FJ	.	.	8r	.	.	8fJ	.	.	.	.	.	.	.	.
.	.	4r	.	4F	.	.	4A-	.	.	4B-	.	.	4E-	.	運	4E-	.	運
=34	=34	=34	=34	=34	=34	=34	=34	=34	=34	=34	=34	=34	=34	=34	=34	=34	=34	=34
1r	.	4FF	.	4F	.	.	4A-	.	.	4e-	.	.	4E-	.	命	4E-	.	命
.	.	8r	.	8r	.	.	8r	.	.	4f	.	.	4d	.	が	4d	.	が
.	.	[8FF	.	[8F	.	.	[8A-	.	.	.	.	.	.	.	.	.	.	.
.	.	8FFL]	.	8FL]	.	.	8A-]	.	.	4B-	.	.	4r	.	.	4r	.	.
.	.	8FFJ	.	8FJ	.	.	8r	.	.	.	.	.	.	.	.	.	.	.
.	.	4r	.	4F	.	.	4A-	.	.	4e-	.	.	8dL	.	さ	8dL	.	さ
.	.	.	.	.	.	.	.	.	.	.	.	.	8dJ	.	だ	8dJ	.	だ
=35	=35	=35	=35	=35	=35	=35	=35	=35	=35	=35	=35	=35	=35	=35	=35	=35	=35	=35
1r	.	4C	.	4c	.	.	4e-	.	.	4B-	.	.	4e-	.	まっ	4e-	.	まっ
.	.	8r	.	8r	.	.	8r	.	.	4c	.	.	8dL	.	て	8dL	.	て
.	.	[8C	.	[8c	.	.	[8e-	.	.	.	.	.	[8B-J	.	る	[8B-J	.	る
.	.	8CL]	.	8cL]	.	.	8e-]	.	.	8fL	.	.	8B-]	.	.	8B-]	.	.
.	.	8CJ	.	8cJ	.	.	8r	.	.	8fJ	.	.	4F	.	とし	4F	.	とし
.	.	4r	.	4c	.	.	4e-	.	.	4c	.	.	.	.	.	.	.	.
.	.	.	.	.	.	.	.	.	.	.	.	.	[8G	.	て	[8G	.	て
=36	=36	=36	=36	=36	=36	=36	=36	=36	=36	=36	=36	=36	=36	=36	=36	=36	=36	=36
1r	.	4C	.	4c	.	.	4e-	.	.	4e-	.	.	4G]	.	.	4G]	.	.
.	.	8r	.	8r	.	.	8r	.	.	4f	.	.	4r	.	.	4r	.	.
.	.	[8C	.	[8c	.	.	[8e-	.	.	.	.	.	.	.	.	.	.	.
.	.	8CL]	.	8cL]	.	.	8e-]	.	.	8B-L	.	.	8B-L	.	そ	8B-L	.	そ
.	.	8CJ	.	8cJ	.	.	8r	.	.	8cJ	.	.	8A-	.	れ	8A-	.	れ
.	.	4r	.	4c	.	.	4e-	.	.	4e-	.	.	8G	.	が	8G	.	が
.	.	.	.	.	.	.	.	.	.	.	.	.	8A-J	.	い	8A-J	.	い
=37	=37	=37	=37	=37	=37	=37	=37	=37	=37	=37	=37	=37	=37	=37	=37	=37	=37	=37
1r	.	4AA-	.	4A-	.	.	4c	.	.	4r	.	.	4B-	.	つ	4B-	.	つ
.	.	8r	.	8r	.	.	8r	.	.	4e-	.	.	8A-L	.	の	8A-L	.	の
.	.	[8AA-	.	[8A-	.	.	[8c	.	.	.	.	.	[8GJ	.	日	[8GJ	.	日
.	.	8AA-L]	.	8A-L]	.	.	8c]	.	.	4f'	.	.	8G]	.	.	8G]	.	.
.	.	8AA-J	.	8A-J	.	.	8r	.	.	.	.	.	4A-	.	か	4A-	.	か
.	.	4r	.	4A-	.	.	4c	.	.	4B-'	.	.	.	.	.	.	.	.
.	.	.	.	.	.	.	.	.	.	.	.	.	8A-	.	ぼ	8A-	.	ぼ
=38	=38	=38	=38	=38	=38	=38	=38	=38	=38	=38	=38	=38	=38	=38	=38	=38	=38	=38
1r	.	4AA-	.	4A-	.	.	4c	.	.	4e-'	.	.	4B-	.	く	4B-	.	く
.	.	8r	.	8r	.	.	8r	.	.	4f'	.	.	8A-L	.	の	8A-L	.	の
.	.	[8AA-	.	[8A-	.	.	[8c	.	.	.	.	.	[8GJ	.	前	[8GJ	.	前
.	.	8AA-L]	.	8A-L]	.	.	8c]	.	.	4B-'	.	.	8G]	.	.	8G]	.	.
.	.	8AA-J	.	8A-J	.	.	8r	.	.	.	.	.	4A-	.	に	4A-	.	に
.	.	4r	.	4A-	.	.	4c	.	.	4e-	.	.	.	.	.	.	.	.
.	.	.	.	.	.	.	.	.	.	.	.	.	8A-	.	あ	8A-	.	あ
=39	=39	=39	=39	=39	=39	=39	=39	=39	=39	=39	=39	=39	=39	=39	=39	=39	=39	=39
1r	.	4BB-	.	4B-	.	.	4d	.	.	2r	.	.	4F	.	ら	4F	.	ら
.	.	8r	.	8r	.	.	8r	.	.	.	.	.	8E-L	.	わ	8E-L	.	わ
.	.	[8BB-	.	[8B-	.	.	[8d	.	.	.	.	.	[8FJ	.	れる	[8FJ	.	れる
.	.	8BB-L]	.	8B-L]	.	.	8d]	.	.	4e-'	.	.	8F]	.	.	8F]	.	.
.	.	8BB-J	.	8B-J	.	.	8r	.	.	.	.	.	4G	.	とし	4G	.	とし
.	.	4r	.	4B-	.	.	4d	.	.	4d'	.	.	.	.	.	.	.	.
.	.	.	.	.	.	.	.	.	.	.	.	.	8G	.	て	8G	.	て
=40	=40	=40	=40	=40	=40	=40	=40	=40	=40	=40	=40	=40	=40	=40	=40	=40	=40	=40
1r	.	4BB-	.	4B-	.	.	4d	.	.	4d'	.	.	2F	.	ー	2F	.	ー
.	.	8r	.	8r	.	.	8r	.	.	8r	.	.	.	.	.	.	.	.
.	.	[8BB-	.	[8B-	.	.	[8d	.	.	8d	.	.	.	.	.	.	.	.
.	.	8BB-L]	.	8B-L]	.	.	8d]	.	.	4r	.	.	4r	.	.	4r	.	.
.	.	8BB-J	.	8B-J	.	.	8r	.	.	.	.	.	.	.	.	.	.	.
.	.	4r	.	4B-	.	.	4d	.	.	4d	.	.	8E-L	.	た	8E-L	.	た
.	.	.	.	.	.	.	.	.	.	.	.	.	8E-J	.	だ	8E-J	.	だ
=41	=41	=41	=41	=41	=41	=41	=41	=41	=41	=41	=41	=41	=41	=41	=41	=41	=41	=41
1r	.	4FF	.	4F	.	.	4A-	.	.	8B-L	.	.	4E-	.	一	4E-	.	一
.	.	.	.	.	.	.	.	.	.	8B-J	.	.	.	.	.	.	.	.
.	.	8r	.	8r	.	.	8r	.	.	4e-	.	.	4B-	.	瞬	4B-	.	瞬
.	.	[8FF	.	[8F	.	.	[8A-	.	.	.	.	.	.	.	.	.	.	.
.	.	8FFL]	.	8FL]	.	.	8A-]	.	.	4f'	.	.	4r	.	.	4r	.	.
.	.	8FFJ	.	8FJ	.	.	8r	.	.	.	.	.	.	.	.	.	.	.
.	.	4r	.	4F	.	.	4A-	.	.	4B-	.	.	8E-L	.	こ	8E-L	.	こ
.	.	.	.	.	.	.	.	.	.	.	.	.	8E-J	.	の	8E-J	.	の
=42	=42	=42	=42	=42	=42	=42	=42	=42	=42	=42	=42	=42	=42	=42	=42	=42	=42	=42
1r	.	4FF	.	4F	.	.	4A-	.	.	4e-	.	.	4E-	.	一	4E-	.	一
.	.	8r	.	8r	.	.	8r	.	.	4f	.	.	4d	.	瞬	4d	.	瞬
.	.	[8FF	.	[8F	.	.	[8A-	.	.	.	.	.	.	.	.	.	.	.
.	.	8FFL]	.	8FL]	.	.	8A-]	.	.	4B-	.	.	4r	.	.	4r	.	.
.	.	8FFJ	.	8FJ	.	.	8r	.	.	.	.	.	.	.	.	.	.	.
.	.	4r	.	4F	.	.	4A-	.	.	4e-	.	.	8dL	.	い	8dL	.	い
.	.	.	.	.	.	.	.	.	.	.	.	.	8dJ	.	き	8dJ	.	き
=43	=43	=43	=43	=43	=43	=43	=43	=43	=43	=43	=43	=43	=43	=43	=43	=43	=43	=43
1r	.	4C	.	4c	.	.	4e-	.	.	8B-L	.	.	4e-	.	が	4e-	.	が
.	.	.	.	.	.	.	.	.	.	8cJ	.	.	.	.	.	.	.	.
.	.	8r	.	8r	.	.	8r	.	.	4e-	.	.	8dL	.	で	8dL	.	で
.	.	[8C	.	[8c	.	.	[8e-	.	.	.	.	.	[8B-J	.	きる	[8B-J	.	きる
.	.	8CL]	.	8cL]	.	.	8e-]	.	.	4f	.	.	8B-]	.	.	8B-]	.	.
.	.	8CJ	.	8cJ	.	.	8r	.	.	.	.	.	4F	.	な	4F	.	な
.	.	4r	.	4c	.	.	4e-	.	.	4B-	.	.	.	.	.	.	.	.
.	.	.	.	.	.	.	.	.	.	.	.	.	[8G	.	ら	[8G	.	ら
=44	=44	=44	=44	=44	=44	=44	=44	=44	=44	=44	=44	=44	=44	=44	=44	=44	=44	=44
1r	.	4C	.	4c	.	.	4e-	.	.	4r	.	.	4G]	.	.	4G]	.	.
.	.	8r	.	8r	.	.	8r	.	.	4f	.	.	4r	.	.	4r	.	.
.	.	[8C	.	[8c	.	.	[8e-	.	.	.	.	.	.	.	.	.	.	.
.	.	8CL]	.	8cL]	.	.	8e-]	.	.	4B-'	.	.	8B-L	.	ど	8B-L	.	ど
.	.	8CJ	.	8cJ	.	.	8r	.	.	.	.	.	8A-	.	う	8A-	.	う
.	.	4r	.	4c	.	.	4e-	.	.	4r	.	.	8G	.	で	8G	.	で
.	.	.	.	.	.	.	.	.	.	.	.	.	8A-J	.	も	8A-J	.	も
=45	=45	=45	=45	=45	=45	=45	=45	=45	=45	=45	=45	=45	=45	=45	=45	=45	=45	=45
1r	.	4FF	.	4F	.	.	4A-	.	.	4B-'	.	.	4B-	.	いい	4B-	.	いい
.	.	8r	.	8r	.	.	8r	.	.	4e-	.	.	4E-	.	と	4E-	.	と
.	.	[8FF	.	[8F	.	.	[8A-	.	.	.	.	.	.	.	.	.	.	.
.	.	8FFL]	.	8FL]	.	.	8A-]	.	.	4f'	.	.	4r	.	.	4r	.	.
.	.	8FFJ	.	8FJ	.	.	8r	.	.	.	.	.	.	.	.	.	.	.
.	.	4r	.	4F	.	.	4A-	.	.	4B-'	.	.	4E-	.	お	4E-	.	お
=46	=46	=46	=46	=46	=46	=46	=46	=46	=46	=46	=46	=46	=46	=46	=46	=46	=46	=46
1r	.	4GG	.	4G	.	.	4B-	.	.	4e-	.	.	8cL	.	も	8cL	.	も
.	.	.	.	.	.	.	.	.	.	.	.	.	8cJ	.	え	8cJ	.	え
.	.	8r	.	8r	.	.	8r	.	.	4f	.	.	4B-	.	た	4B-	.	た
.	.	[8GG	.	[8G	.	.	8B-	.	.	.	.	.	.	.	.	.	.	.
.	.	8GGL]	.	8GL]	.	.	4r	.	.	4B-'	.	.	4r	.	.	4r	.	.
.	.	8GGJ	.	8GJ	.	.	.	.	.	.	.	.	.	.	.	.	.	.
.	.	4r	.	4G'	.	.	4B-'	.	.	4e-	.	.	4B-	.	そ	4B-	.	そ
=47	=47	=47	=47	=47	=47	=47	=47	=47	=47	=47	=47	=47	=47	=47	=47	=47	=47	=47
1r	.	4AA-	.	4A-	.	.	4c	.	.	4B-	.	.	2c	.	の	2c	.	の
.	.	8r	.	8r	.	.	8r	.	.	4e-	.	.	.	.	.	.	.	.
.	.	[8AA-	.	[8A-	.	.	8c	.	.	.	.	.	.	.	.	.	.	.
.	.	8AA-L]	.	8A-L]	.	.	4r	.	.	4f'	.	.	2e-	.	こ	2e-	.	こ
.	.	8AA-J	.	8A-J	.	.	.	.	.	.	.	.	.	.	.	.	.	.
.	.	4r	.	4A-'	.	.	4c'	.	.	4B-	.	.	.	.	.	.	.	.
=48	=48	=48	=48	=48	=48	=48	=48	=48	=48	=48	=48	=48	=48	=48	=48	=48	=48	=48
1r	.	4BB-	.	4B-	.	.	4d	.	.	4d	.	.	4.f	.	こ	4.f	.	こ
.	.	8r	.	8r	.	.	8r	.	.	4e-	.	.	.	.	.	.	.	.
.	.	[8BB-	.	[8B-	.	.	8d	.	.	.	.	.	8e-	.	ろ	8e-	.	ろ
.	.	8BB-L]	.	8B-L]	.	.	4r	.	.	8r	.	.	[2d	.	を	[2d	.	を
.	.	8BB-J	.	8B-J	.	.	.	.	.	8d	.	.	.	.	.	.	.	.
.	.	4r	.	4B-'	.	.	4d'	.	.	4d	.	.	.	.	.	.	.	.
=49	=49	=49	=49	=49	=49	=49	=49	=49	=49	=49	=49	=49	=49	=49	=49	=49	=49	=49
1r	.	8BB-L	.	8B-L	.	.	8dL	.	.	8fL	.	.	2d]	.	.	2d]	.	.
.	.	8BB-J	.	8B-J	.	.	8dJ	.	.	8fJ	.	.	.	.	.	.	.	.
.	.	8r	.	8r	.	.	8r	.	.	8r	.	.	.	.	.	.	.	.
.	.	8BB-	.	8B-	.	.	8d	.	.	8f	.	.	.	.	.	.	.	.
.	.	8r	.	8r	.	.	8r	.	.	8r	.	.	2r	.	.	2r	.	.
.	.	8BB-	.	8B-	.	.	8d	.	.	8f	.	.	.	.	.	.	.	.
.	.	8r	.	8r	.	.	8r	.	.	8r	.	.	.	.	.	.	.	.
.	.	8BB-	.	8B-	.	.	8d	.	.	8f	.	.	.	.	.	.	.	.
=50	=50	=50	=50	=50	=50	=50	=50	=50	=50	=50	=50	=50	=50	=50	=50	=50	=50	=50
1r	.	1r	.	1r	.	.	4r	.	.	1r	.	.	1r	.	.	4r	.	.
.	.	.	.	.	.	.	4g	もう	.	.	.	.	.	.	.	4g	もう	.
.	.	.	.	.	.	.	8.fL	い	.	.	.	.	.	.	.	8.fL	い	.
.	.	.	.	.	.	.	16fJk	ち	.	.	.	.	.	.	.	16fJk	ち	.
.	.	.	.	.	.	.	4e-	ど	.	.	.	.	.	.	.	4e-	ど	.
=51	=51	=51	=51	=51	=51	=51	=51	=51	=51	=51	=51	=51	=51	=51	=51	=51	=51	=51
1r	.	4AA-	.	2e-	.	.	4c	遠	.	2a-	.	.	4c	.	.	4c	遠	.
.	.	8AA-L	.	.	.	.	8gL	く	.	.	.	.	8ccL	.	.	8gL	く	.
.	.	[8AA-J	.	.	.	.	8fJ	へ	.	.	.	.	8b-J	.	.	8fJ	へ	.
.	.	8AA-L]	.	2e-	.	.	8f	行	.	2a-	.	.	8b-	.	.	8f	行	.
.	.	8AA-	.	.	.	.	4e-	け	.	.	.	.	4a-	.	.	4e-	け	.
.	.	8AA-	.	.	.	.	.	.	.	.	.	.	.	.	.	.	.	.
.	.	8AA-J	.	.	.	.	[8d	遠	.	.	.	.	[8g	.	.	[8d	遠	.
=52	=52	=52	=52	=52	=52	=52	=52	=52	=52	=52	=52	=52	=52	=52	=52	=52	=52	=52
1r	.	4BB-	.	2f	.	.	8dL]	.	.	2b-	.	.	8gL]	.	.	8dL]	.	.
.	.	.	.	.	.	.	8e-	く	.	.	.	.	8a-	.	.	8e-	く	.
.	.	8BB-L	.	.	.	.	8d	へ	.	.	.	.	8g	.	.	8d	へ	.
.	.	[8BB-J	.	.	.	.	8cJ	行	.	.	.	.	8fJ	.	.	8cJ	行	.
.	.	8BB-L]	.	2f	.	.	8cL	け	.	2b-	.	.	8fL	.	.	8cL	け	.
.	.	8BB-	.	.	.	.	8B-J	と	.	.	.	.	8dJ	.	.	8B-J	と	.
.	.	8BB-	.	.	.	.	8r	.	.	.	.	.	4r	.	.	8r	.	.
.	.	8BB-J	.	.	.	.	[8e-	ぼ	.	.	.	.	.	.	.	[8e-	ぼ	.
=53	=53	=53	=53	=53	=53	=53	=53	=53	=53	=53	=53	=53	=53	=53	=53	=53	=53	=53
1r	.	4C	.	2g	.	.	8e-L]	.	.	2cc	.	.	1r	.	.	8e-L]	.	.
.	.	.	.	.	.	.	8d	く	.	.	.	.	.	.	.	8d	く	.
.	.	8CL	.	.	.	.	8B-	の	.	.	.	.	.	.	.	8B-	の	.
.	.	[8CJ	.	.	.	.	[8cJ	な	.	.	.	.	.	.	.	[8cJ	な	.
.	.	8CL]	.	2g	.	.	8cL]	.	.	2cc	.	.	.	.	.	8cL]	.	.
.	.	8C	.	.	.	.	8B-	か	.	.	.	.	.	.	.	8B-	か	.
.	.	8C	.	.	.	.	8A-	で	.	.	.	.	.	.	.	8A-	で	.
.	.	8CJ	.	.	.	.	[8GJ	.	だ	.	.	.	.	.	.	[8GJ	.	だ
=54	=54	=54	=54	=54	=54	=54	=54	=54	=54	=54	=54	=54	=54	=54	=54	=54	=54	=54
1r	.	4E-	.	2b-	.	.	8GL]	.	.	2ee-	.	.	1r	.	.	8GL]	.	.
.	.	.	.	.	.	.	8A-	れ	.	.	.	.	.	.	.	8A-	れ	.
.	.	8E-L	.	.	.	.	8B-	か	.	.	.	.	.	.	.	8B-	か	.
.	.	[8E-J	.	.	.	.	8fJ	が	.	.	.	.	.	.	.	8fJ	が	.
.	.	8E-L]	.	2b-	.	.	8fL	う	.	2ee-	.	.	.	.	.	8fL	う	.
.	.	8E-J	.	.	.	.	8e-J	たう	.	.	.	.	.	.	.	8e-J	たう	.
.	.	4E-	.	.	.	.	4r	.	.	.	.	.	.	.	.	4r	.	.
=55	=55	=55	=55	=55	=55	=55	=55	=55	=55	=55	=55	=55	=55	=55	=55	=55	=55	=55
1r	.	4AA-	.	2e-	.	.	4c	どう	.	2a-	.	.	1e-	.	.	4c	どう	.
.	.	8AA-L	.	.	.	.	8gL	し	.	.	.	.	.	.	.	8gL	し	.
.	.	[8AA-J	.	.	.	.	[8fJ	よう	.	.	.	.	.	.	.	[8fJ	よう	.
.	.	8AA-L]	.	2e-	.	.	8f]	.	.	2a-	.	.	.	.	.	8f]	.	.
.	.	8AA-	.	.	.	.	4e-	も	.	.	.	.	.	.	.	4e-	も	.
.	.	8AA-	.	.	.	.	.	.	.	.	.	.	.	.	.	.	.	.
.	.	8AA-J	.	.	.	.	[8a-	ない	.	.	.	.	.	.	.	[8a-	ない	.
=56	=56	=56	=56	=56	=56	=56	=56	=56	=56	=56	=56	=56	=56	=56	=56	=56	=56	=56
1r	.	4BBn	.	2f	.	.	8a-L]	.	.	2bn	.	.	1f	.	.	8a-L]	.	.
.	.	.	.	.	.	.	8g	ほ	.	.	.	.	.	.	.	8g	ほ	.
.	.	8BBL	.	.	.	.	8f	ど	.	.	.	.	.	.	.	8f	ど	.
.	.	[8BBJ	.	.	.	.	8e-J	ね	.	.	.	.	.	.	.	8e-J	ね	.
.	.	8BBL]	.	2f	.	.	8dL	つ	.	2b	.	.	.	.	.	8dL	つ	.
.	.	8BB	.	.	.	.	8e-	れ	.	.	.	.	.	.	.	8e-	れ	.
.	.	8BB	.	.	.	.	8f	つ	.	.	.	.	.	.	.	8f	つ	.
.	.	8BBJ	.	.	.	.	[8gJ	に	.	.	.	.	.	.	.	[8gJ	に	.
=57	=57	=57	=57	=57	=57	=57	=57	=57	=57	=57	=57	=57	=57	=57	=57	=57	=57	=57
1r	.	4C	.	2e-	.	.	1g]	ー	.	2cc	.	.	2.e-	.	.	1g]	ー	.
.	.	8CL	.	.	.	.	.	.	.	.	.	.	.	.	.	.	.	.
.	.	[8CJ	.	.	.	.	.	.	.	.	.	.	.	.	.	.	.	.
.	.	8CL]	.	2e-	.	.	.	.	.	2cc	.	.	.	.	.	.	.	.
.	.	8C	.	.	.	.	.	.	.	.	.	.	.	.	.	.	.	.
.	.	8C	.	.	.	.	.	.	.	.	.	.	8r	.	.	.	.	.
.	.	8CJ	.	.	.	.	.	.	.	.	.	.	8g	.	.	.	.	.
=58	=58	=58	=58	=58	=58	=58	=58	=58	=58	=58	=58	=58	=58	=58	=58	=58	=58	=58
1r	.	8E-L	.	2e-	.	.	4r	.	.	2ee-	.	.	1e-	.	.	4r	.	.
.	.	8E-	.	.	.	.	.	.	.	.	.	.	.	.	.	.	.	.
.	.	8E-	.	.	.	.	8.gL	い	.	.	.	.	.	.	.	8.gL	い	.
.	.	8E-J	.	.	.	.	.	.	.	.	.	.	.	.	.	.	.	.
.	.	.	.	.	.	.	16gJk	つ	.	.	.	.	.	.	.	16gJk	つ	.
.	.	8E-L	.	2e-	.	.	4f	だっ	.	2ee-	.	.	.	.	.	4f	だっ	.
.	.	8E-	.	.	.	.	.	.	.	.	.	.	.	.	.	.	.	.
.	.	8E-	.	.	.	.	4e-	て	.	.	.	.	.	.	.	4e-	て	.
.	.	8E-J	.	.	.	.	.	.	.	.	.	.	.	.	.	.	.	.
=59	=59	=59	=59	=59	=59	=59	=59	=59	=59	=59	=59	=59	=59	=59	=59	=59	=59	=59
1r	.	4AA-	.	2e-	.	.	8cL	目	.	2a-	.	.	8cL	.	.	8cL	目	.
.	.	.	.	.	.	.	8c	を	.	.	.	.	8c	.	.	8c	を	.
.	.	8AA-L	.	.	.	.	8g	腫	.	.	.	.	8cc	.	.	8g	腫	.
.	.	[8AA-J	.	.	.	.	[8fJ	らし	.	.	.	.	[8b-J	.	.	[8fJ	らし	.
.	.	8AA-L]	.	2e-	.	.	8f]	.	.	2a-	.	.	8b-]	.	.	8f]	.	.
.	.	8AA-	.	.	.	.	4e-	た	.	.	.	.	4a-	.	.	4e-	た	.
.	.	8AA-	.	.	.	.	.	.	.	.	.	.	.	.	.	.	.	.
.	.	8AA-J	.	.	.	.	[8d	き	.	.	.	.	[8g	.	.	[8d	き	.
=60	=60	=60	=60	=60	=60	=60	=60	=60	=60	=60	=60	=60	=60	=60	=60	=60	=60	=60
1r	.	4BB-	.	2f	.	.	8dL]	.	.	2b-	.	.	8gL]	.	.	8dL]	.	.
.	.	.	.	.	.	.	8e-	み	.	.	.	.	8a-	.	.	8e-	み	.
.	.	8BB-L	.	.	.	.	8d	が	.	.	.	.	8g	.	.	8d	が	.
.	.	[8BB-J	.	.	.	.	8cJ	二	.	.	.	.	8fJ	.	.	8cJ	二	.
.	.	8BB-L]	.	2f	.	.	8cL	度	.	2b-	.	.	8fL	.	.	8cL	度	.
.	.	8BB-	.	.	.	.	8B-J	と	.	.	.	.	8dJ	.	.	8B-J	と	.
.	.	8BB-	.	.	.	.	8r	.	.	.	.	.	4r	.	.	8r	.	.
.	.	8BB-J	.	.	.	.	[8e-	か	.	.	.	.	.	.	.	[8e-	か	.
=61	=61	=61	=61	=61	=61	=61	=61	=61	=61	=61	=61	=61	=61	=61	=61	=61	=61	=61
1r	.	4C	.	2e-	.	.	8e-L]	ー	.	2cc	.	.	1r	.	.	8e-L]	ー	.
.	.	.	.	.	.	.	8d	な	.	.	.	.	.	.	.	8d	な	.
.	.	8CL	.	.	.	.	8B-	し	.	.	.	.	.	.	.	8B-	し	.
.	.	[8CJ	.	.	.	.	[8cJ	ま	.	.	.	.	.	.	.	[8cJ	ま	.
.	.	8CL]	.	2e-	.	.	8cL]	.	.	2cc	.	.	.	.	.	8cL]	.	.
.	.	8C	.	.	.	.	8B-	な	.	.	.	.	.	.	.	8B-	な	.
.	.	8C	.	.	.	.	8A-	い	.	.	.	.	.	.	.	8A-	い	.
.	.	8CJ	.	.	.	.	[8GJ	.	よう	.	.	.	.	.	.	[8GJ	.	よう
=62	=62	=62	=62	=62	=62	=62	=62	=62	=62	=62	=62	=62	=62	=62	=62	=62	=62	=62
1r	.	4E-	.	2e-	.	.	8GL]	.	.	2ee-	.	.	1r	.	.	8GL]	.	.
.	.	.	.	.	.	.	8A-	に	.	.	.	.	.	.	.	8A-	に	.
.	.	8E-L	.	.	.	.	8B-	わ	.	.	.	.	.	.	.	8B-	わ	.
.	.	[8E-J	.	.	.	.	[8fJ	らえ	.	.	.	.	.	.	.	[8fJ	らえ	.
.	.	8E-L]	.	2e-	.	.	8fL]	.	.	2ee-	.	.	.	.	.	8fL]	.	.
.	.	8E-J	.	.	.	.	8e-J	る	.	.	.	.	.	.	.	8e-J	る	.
.	.	4E-	.	.	.	.	4r	.	.	.	.	.	.	.	.	4r	.	.
=63	=63	=63	=63	=63	=63	=63	=63	=63	=63	=63	=63	=63	=63	=63	=63	=63	=63	=63
1r	.	4AA-	.	2e-	.	.	4c	そん	.	2a-	.	.	1e-	.	.	4c	そん	.
.	.	8AA-L	.	.	.	.	8gL	な	.	.	.	.	.	.	.	8gL	な	.
.	.	[8AA-J	.	.	.	.	[8fJ	ヒ	.	.	.	.	.	.	.	[8fJ	ヒ	.
.	.	8AA-L]	.	2e-	.	.	8f]	ー	.	2a-	.	.	.	.	.	8f]	ー	.
.	.	8AA-	.	.	.	.	4e-	ロー	.	.	.	.	.	.	.	4e-	ロー	.
.	.	8AA-	.	.	.	.	.	.	.	.	.	.	.	.	.	.	.	.
.	.	8AA-J	.	.	.	.	[8a-	に	.	.	.	.	.	.	.	[8a-	に	.
=64	=64	=64	=64	=64	=64	=64	=64	=64	=64	=64	=64	=64	=64	=64	=64	=64	=64	=64
1r	.	4BBn	.	2f	.	.	8a-L]	.	.	2bn	.	.	1f	.	.	8a-L]	.	.
.	.	.	.	.	.	.	8g	な	.	.	.	.	.	.	.	8g	な	.
.	.	8BBL	.	.	.	.	8f	る	.	.	.	.	.	.	.	8f	る	.
.	.	[8BBJ	.	.	.	.	8e-J	た	.	.	.	.	.	.	.	8e-J	た	.
.	.	8BBL]	.	2f	.	.	8dL	め	.	2b	.	.	.	.	.	8dL	め	.
.	.	8BB	.	.	.	.	8c	の	.	.	.	.	.	.	.	8c	の	.
.	.	8BB	.	.	.	.	8d	う	.	.	.	.	.	.	.	8d	う	.
.	.	8BBJ	.	.	.	.	[8e-J	た	.	.	.	.	.	.	.	[8e-J	た	.
=65	=65	=65	=65	=65	=65	=65	=65	=65	=65	=65	=65	=65	=65	=65	=65	=65	=65	=65
1r	.	4C	.	2e-	.	.	1e-]	.	.	2cc	.	.	1e-	.	.	1e-]	.	.
.	.	8CL	.	.	.	.	.	.	.	.	.	.	.	.	.	.	.	.
.	.	[8CJ	.	.	.	.	.	.	.	.	.	.	.	.	.	.	.	.
.	.	8CL]	.	2e-	.	.	.	.	.	2cc	.	.	.	.	.	.	.	.
.	.	8C	.	.	.	.	.	.	.	.	.	.	.	.	.	.	.	.
.	.	8C	.	.	.	.	.	.	.	.	.	.	.	.	.	.	.	.
.	.	8CJ	.	.	.	.	.	.	.	.	.	.	.	.	.	.	.	.
=66	=66	=66	=66	=66	=66	=66	=66	=66	=66	=66	=66	=66	=66	=66	=66	=66	=66	=66
1r	.	8E-L	.	8e-L	.	.	2r	.	.	8ee-L	.	.	1r	.	.	2r	.	.
.	.	8E-	.	8e-	.	.	.	.	.	8ee-	.	.	.	.	.	.	.	.
.	.	8E-	.	8e-	.	.	.	.	.	8ee-	.	.	.	.	.	.	.	.
.	.	8E-J	.	8e-J	.	.	.	.	.	8ee-J	.	.	.	.	.	.	.	.
.	.	8E-L	.	8e-L	.	.	4r	.	.	8ee-L	.	.	.	.	.	4r	.	.
.	.	8E-	.	8e-	.	.	.	.	.	8ee-	.	.	.	.	.	.	.	.
.	.	8E-	.	8e-	.	.	8e-L	さ	.	8ee-	.	.	.	.	.	8e-L	さ	.
.	.	8E-J	.	8e-J	.	.	8dJ	ら	.	8ee-J	.	.	.	.	.	8dJ	ら	.
=67	=67	=67	=67	=67	=67	=67	=67	=67	=67	=67	=67	=67	=67	=67	=67	=67	=67	=67
1r	.	8AA-L	.	8e-L	.	.	4c	ば	.	8ee-L	.	.	4r	.	.	4c	ば	.
.	.	8AA-J	.	8e-J	.	.	.	.	.	8ee-J	.	.	.	.	.	.	.	.
.	.	8r	.	8r	.	.	8e-L	か	.	8r	.	.	8gL	.	.	8e-L	か	.
.	.	[8BB-	.	[8f	.	.	[8dJ	か	.	[8dd	.	.	[8fJ	.	.	[8dJ	か	.
.	.	8BB-L]	.	8fL]	.	.	8dL]	.	.	8ddL]	.	.	8fL]	.	.	8dL]	.	.
.	.	8BB-J	.	8f	.	.	8e-	げ	.	8dd	.	.	8g	.	.	8e-	げ	.
.	.	4BB-	.	8f	.	.	8f	ろ	.	8dd	.	.	8a-	.	.	8f	ろ	.
.	.	.	.	8fJ	.	.	[8fJ	ピー	.	8ddJ	.	.	[8a-J	.	.	[8fJ	ピー	.
=68	=68	=68	=68	=68	=68	=68	=68	=68	=68	=68	=68	=68	=68	=68	=68	=68	=68	=68
1r	.	8GGL	.	8dL	.	.	4f]	ス	.	8ddL	.	.	4a-]	.	.	4f]	ス	.
.	.	8GGJ	.	8dJ	.	.	.	.	.	8ddJ	.	.	.	.	.	.	.	.
.	.	8r	.	8r	.	.	8gL	サ	.	8r	.	.	8b-L	.	.	8gL	サ	.
.	.	[8C	.	[8c	.	.	[8e-J	イン	.	[8ee-	.	.	[8gJ	.	.	[8e-J	イン	.
.	.	8CL]	.	8cL]	.	.	4e-]	.	.	8ee-L]	.	.	4g]	.	.	4e-]	.	.
.	.	8CJ	.	8c	.	.	.	.	.	8ee-	.	.	.	.	.	.	.	.
.	.	4C	.	8c	.	.	8e-L	こ	.	8ee-	.	.	8gL	.	.	8e-L	こ	.
.	.	.	.	8cJ	.	.	8dJ	ろ	.	8ee-J	.	.	8fJ	.	.	8dJ	ろ	.
=69	=69	=69	=69	=69	=69	=69	=69	=69	=69	=69	=69	=69	=69	=69	=69	=69	=69	=69
1r	.	8BBnL	.	8BnL	.	.	4e-	がっ	.	8ee-L	.	.	4g	.	.	4e-	がっ	.
.	.	8BBJ	.	8BJ	.	.	.	.	.	8ee-J	.	.	.	.	.	.	.	.
.	.	8r	.	8r	.	.	8BnL	て	.	8r	.	.	8e-L	.	.	8BnL	て	.
.	.	[8D-X	.	[8d-X	.	.	[8d-XJ	いく	.	[8ff	.	.	[8fJ	.	.	[8d-XJ	いく	.
.	.	8D-L]	.	8d-L]	.	.	8d-]	.	.	8ffL]	.	.	8f]	.	.	8d-]	.	.
.	.	8D-J	.	8d-	.	.	4a-	ストー	.	8ff	.	.	4cc	.	.	4a-	ストー	.
.	.	4D-	.	8d-	.	.	.	.	.	8ff	.	.	.	.	.	.	.	.
.	.	.	.	8d-J	.	.	[8g	リー	.	8ffJ	.	.	[8b-	.	.	[8g	リー	.
=70	=70	=70	=70	=70	=70	=70	=70	=70	=70	=70	=70	=70	=70	=70	=70	=70	=70	=70
1r	.	4E-	.	4e-	.	.	8g]	.	.	4ee-	.	.	8b-]	.	.	8g]	.	.
.	.	.	.	.	.	.	[4.e-	を	.	.	.	.	4.g	.	.	[4.e-	を	.
.	.	4E-	.	4e-	.	.	.	.	.	4ee-	.	.	.	.	.	.	.	.
.	.	8E-L	.	8e-L	.	.	8e-]	ー	.	8ee-L	.	.	2r	.	.	8e-]	ー	.
.	.	8E-J	.	8e-J	.	.	8r	.	.	8ee-J	.	.	.	.	.	8r	.	.
.	.	4r	.	4r	.	.	4r	.	.	4r	.	.	.	.	.	4r	.	.
=71	=71	=71	=71	=71	=71	=71	=71	=71	=71	=71	=71	=71	=71	=71	=71	=71	=71	=71
8AA-L	.	8A-L	.	8e-L	.	.	8b-L	.	.	8cL	.	.	1r	.	.	1r	.	.
8AA-J	.	8A-J	.	8e-J	.	.	8b-J	.	.	8dJ	.	.	.	.	.	.	.	.
8r	.	8r	.	8r	.	.	8r	.	.	8r	.	.	.	.	.	.	.	.
[8BB-	.	[8B-	.	[8f	.	.	[8b-	.	.	8e-	.	.	.	.	.	.	.	.
8BB-L]	.	8B-L]	.	8fL]	.	.	8b-L]	.	.	8r	.	.	.	.	.	.	.	.
8BB-J	.	8B-J	.	8fJ	.	.	8b-J	.	.	8b-	.	.	.	.	.	.	.	.
8r	.	8r	.	8r	.	.	8r	.	.	8r	.	.	.	.	.	.	.	.
[8C	.	[8c	.	[8g	.	.	[8b-	.	.	8f	.	.	.	.	.	.	.	.
=72	=72	=72	=72	=72	=72	=72	=72	=72	=72	=72	=72	=72	=72	=72	=72	=72	=72	=72
8CL]	.	8cL]	.	8gL]	.	.	8b-L]	.	.	8r	.	.	1r	.	.	1r	.	.
8CJ	.	8cJ	.	8gJ	.	.	8b-J	.	.	8g	.	.	.	.	.	.	.	.
8r	.	8r	.	8r	.	.	8r	.	.	8r	.	.	.	.	.	.	.	.
[8E-	.	[8e-	.	[8b-	.	.	[8b-	.	.	8c	.	.	.	.	.	.	.	.
8E-L]	.	8e-L]	.	8b-L]	.	.	8b-L]	.	.	8r	.	.	.	.	.	.	.	.
8E-J	.	8e-J	.	8b-J	.	.	8b-J	.	.	8cL	.	.	.	.	.	.	.	.
4E-	.	4e-	.	4b-	.	.	4b-	.	.	8d	.	.	.	.	.	.	.	.
.	.	.	.	.	.	.	.	.	.	8e-J	.	.	.	.	.	.	.	.
=73	=73	=73	=73	=73	=73	=73	=73	=73	=73	=73	=73	=73	=73	=73	=73	=73	=73	=73
8GGL	.	8GL	.	8dL	.	.	8bnL	.	.	8r	.	.	1r	.	.	1r	.	.
8GGJ	.	8GJ	.	8dJ	.	.	8bJ	.	.	8fL	.	.	.	.	.	.	.	.
8r	.	8r	.	8r	.	.	8r	.	.	8g	.	.	.	.	.	.	.	.
[8BBn	.	[8Bn	.	[8f	.	.	[8a-	.	.	[8a-J	.	.	.	.	.	.	.	.
8BBL]	.	8BL]	.	8fL]	.	.	8a-L]	.	.	8a-L]	.	.	.	.	.	.	.	.
8BBJ	.	8BJ	.	8f	.	.	8a-	.	.	8g	.	.	.	.	.	.	.	.
8r	.	8r	.	8f	.	.	8a-	.	.	8f	.	.	.	.	.	.	.	.
[8C	.	[8c	.	[8gJ	.	.	[8b-XJ	.	.	8e-J	.	.	.	.	.	.	.	.
=74	=74	=74	=74	=74	=74	=74	=74	=74	=74	=74	=74	=74	=74	=74	=74	=74	=74	=74
8CL]	.	8cL]	.	8gL]	.	.	8b-L]	.	.	8fL	.	.	1r	.	.	1r	.	.
8CJ	.	8cJ	.	8g	.	.	8b-	.	.	8f	.	.	.	.	.	.	.	.
8r	.	8r	.	8g	.	.	8b-	.	.	8f	.	.	.	.	.	.	.	.
[8C	.	[8c	.	[8gJ	.	.	[8b-J	.	.	[8gJ	.	.	.	.	.	.	.	.
8CL]	.	8cL]	.	8gL]	.	.	8b-L]	.	.	8gL]	.	.	.	.	.	.	.	.
8CJ	.	8cJ	.	8g	.	.	8b-	.	.	8g	.	.	.	.	.	.	.	.
4C	.	4c	.	8g	.	.	8b-	.	.	8g	.	.	.	.	.	.	.	.
.	.	.	.	8gJ	.	.	8b-J	.	.	8gJ	.	.	.	.	.	.	.	.
=75	=75	=75	=75	=75	=75	=75	=75	=75	=75	=75	=75	=75	=75	=75	=75	=75	=75	=75
8AA-L	.	8A-L	.	8e-L	.	.	8b-L	.	.	8cL	.	.	1r	.	.	1r	.	.
8AA-J	.	8A-J	.	8e-J	.	.	8b-J	.	.	8dJ	.	.	.	.	.	.	.	.
8r	.	8r	.	8r	.	.	8r	.	.	8r	.	.	.	.	.	.	.	.
8BB-	.	8B-	.	[8f	.	.	[8b-	.	.	8e-	.	.	.	.	.	.	.	.
8BB-L	.	8B-L	.	8fL]	.	.	8b-L]	.	.	8r	.	.	.	.	.	.	.	.
8BB-J	.	8B-J	.	8fJ	.	.	8b-J	.	.	8b-	.	.	.	.	.	.	.	.
8r	.	8r	.	8r	.	.	8r	.	.	8r	.	.	.	.	.	.	.	.
[8C	.	[8c	.	[8g	.	.	[8b-	.	.	8f	.	.	.	.	.	.	.	.
=76	=76	=76	=76	=76	=76	=76	=76	=76	=76	=76	=76	=76	=76	=76	=76	=76	=76	=76
8CL]	.	8cL]	.	8gL]	.	.	8b-L]	.	.	8r	.	.	1r	.	.	1r	.	.
8CJ	.	8cJ	.	8gJ	.	.	8b-J	.	.	8g	.	.	.	.	.	.	.	.
8r	.	8r	.	8r	.	.	8r	.	.	8r	.	.	.	.	.	.	.	.
[8E-	.	[8e-	.	[8b-	.	.	[8b-	.	.	8c	.	.	.	.	.	.	.	.
8E-L]	.	8e-L]	.	8b-L]	.	.	8b-L]	.	.	8r	.	.	.	.	.	.	.	.
8E-J	.	8e-J	.	8b-J	.	.	8b-J	.	.	8cL	.	.	.	.	.	.	.	.
4E-	.	4e-	.	4b-	.	.	4b-	.	.	8d	.	.	.	.	.	.	.	.
.	.	.	.	.	.	.	.	.	.	8e-J	.	.	.	.	.	.	.	.
=77	=77	=77	=77	=77	=77	=77	=77	=77	=77	=77	=77	=77	=77	=77	=77	=77	=77	=77
8GGL	.	8GL	.	8dL	.	.	8bnL	.	.	8r	.	.	1r	.	.	1r	.	.
8GGJ	.	8GJ	.	8dJ	.	.	8bJ	.	.	8fL	.	.	.	.	.	.	.	.
8r	.	8r	.	8r	.	.	8r	.	.	8g	.	.	.	.	.	.	.	.
[8BBn	.	[8Bn	.	[8f	.	.	[8a-	.	.	[8a-J	.	.	.	.	.	.	.	.
8BBL]	.	8BL]	.	8fL]	.	.	8a-L]	.	.	8a-L]	.	.	.	.	.	.	.	.
8BBJ	.	8BJ	.	8fJ	.	.	8a-J	.	.	8g	.	.	.	.	.	.	.	.
8r	.	8r	.	8r	.	.	8r	.	.	8f	.	.	.	.	.	.	.	.
[8C	.	[8c	.	[8g	.	.	[8b-X	.	.	8e-J	.	.	.	.	.	.	.	.
=78	=78	=78	=78	=78	=78	=78	=78	=78	=78	=78	=78	=78	=78	=78	=78	=78	=78	=78
8CL]	.	8c]	.	8gL]	.	.	8b-L]	.	.	8fL	.	.	1r	.	.	2r	.	.
8CJ	.	8r	.	8g	.	.	8b-	.	.	8f	.	.	.	.	.	.	.	.
8r	.	4r	.	8g	.	.	8b-	.	.	8f	.	.	.	.	.	.	.	.
[8C	.	.	.	8gJ	.	.	8b-J	.	.	[8e-J	.	.	.	.	.	.	.	.
8CL]	.	8r	.	8gL	.	.	8b-L	.	.	8e-L]	.	.	.	.	.	8r	.	.
8CJ	.	8GL	ま	8g	.	.	8b-	.	.	8e-J	.	.	.	.	.	8GL	ま	.
4C	.	8B-	も	8g	.	.	8b-	.	.	4e-	.	.	.	.	.	8B-	も	.
.	.	8cJ	り	8gJ	.	.	8b-J	.	.	.	.	.	.	.	.	8cJ	り	.
=79	=79	=79	=79	=79	=79	=79	=79	=79	=79	=79	=79	=79	=79	=79	=79	=79	=79	=79
1C	.	4e-	たい	1c	.	.	4r	.	.	2r	.	.	1r	.	.	4e-	たい	.
.	.	8dL	だ	.	.	.	2.e-	.	.	.	.	.	.	.	.	8dL	だ	.
.	.	[8B-J	なん	.	.	.	.	.	.	.	.	.	.	.	.	[8B-J	なん	.
.	.	8B-]	.	.	.	.	.	.	.	2b-	.	.	.	.	.	8B-]	.	.
.	.	4c	て	.	.	.	.	.	.	.	.	.	.	.	.	4c	て	.
.	.	8c	言	.	.	.	.	.	.	.	.	.	.	.	.	8c	言	.
=80	=80	=80	=80	=80	=80	=80	=80	=80	=80	=80	=80	=80	=80	=80	=80	=80	=80	=80
1FF	.	8B-L	え	1d	.	.	4r	.	.	2r	.	.	1r	.	.	8B-L	え	.
.	.	8B-	る	.	.	.	.	.	.	.	.	.	.	.	.	8B-	る	.
.	.	8A-	ほ	.	.	.	2.f	.	.	.	.	.	.	.	.	8A-	ほ	.
.	.	[8GJ	ど	.	.	.	.	.	.	.	.	.	.	.	.	[8GJ	ど	.
.	.	8GL]	.	.	.	.	.	.	.	2b-	.	.	.	.	.	8GL]	.	.
.	.	8G	き	.	.	.	.	.	.	.	.	.	.	.	.	8G	き	.
.	.	8G	み	.	.	.	.	.	.	.	.	.	.	.	.	8G	み	.
.	.	8GJ	が	.	.	.	.	.	.	.	.	.	.	.	.	8GJ	が	.
=81	=81	=81	=81	=81	=81	=81	=81	=81	=81	=81	=81	=81	=81	=81	=81	=81	=81	=81
1BB-	.	8FL	よ	1B-	.	.	4r	.	.	2r	.	.	1r	.	.	8FL	よ	.
.	.	8F	わ	.	.	.	.	.	.	.	.	.	.	.	.	8F	わ	.
.	.	8E-	く	.	.	.	2.d	.	.	.	.	.	.	.	.	8E-	く	.
.	.	8E-J	は	.	.	.	.	.	.	.	.	.	.	.	.	8E-J	は	.
.	.	4F	ない	.	.	.	.	.	.	2b-	.	.	.	.	.	4F	ない	.
.	.	8B-L	の	.	.	.	.	.	.	.	.	.	.	.	.	8B-L	の	.
.	.	8B-J	わ	.	.	.	.	.	.	.	.	.	.	.	.	8B-J	わ	.
=82	=82	=82	=82	=82	=82	=82	=82	=82	=82	=82	=82	=82	=82	=82	=82	=82	=82	=82
1C	.	4A-	かっ	1c	.	.	4r	.	.	2r	.	.	1r	.	.	4A-	かっ	.
.	.	8GL	て	.	.	.	2.e-	.	.	.	.	.	.	.	.	8GL	て	.
.	.	8GJ	た	.	.	.	.	.	.	.	.	.	.	.	.	8GJ	た	.
.	.	8r	.	.	.	.	.	.	.	2b-	.	.	.	.	.	8r	.	.
.	.	8GL	そ	.	.	.	.	.	.	.	.	.	.	.	.	8GL	そ	.
.	.	8B-	れ	.	.	.	.	.	.	.	.	.	.	.	.	8B-	れ	.
.	.	8cJ	以	.	.	.	.	.	.	.	.	.	.	.	.	8cJ	以	.
=83	=83	=83	=83	=83	=83	=83	=83	=83	=83	=83	=83	=83	=83	=83	=83	=83	=83	=83
1C	.	4e-	上	1c	.	.	4r	.	.	2r	.	.	1r	.	.	4e-	上	.
.	.	8dL	に	.	.	.	2.e-	.	.	.	.	.	.	.	.	8dL	に	.
.	.	[8B-J	僕	.	.	.	.	.	.	.	.	.	.	.	.	[8B-J	僕	.
.	.	8B-]	.	.	.	.	.	.	.	2b-	.	.	.	.	.	8B-]	.	.
.	.	4c	は	.	.	.	.	.	.	.	.	.	.	.	.	4c	は	.
.	.	8c	よ	.	.	.	.	.	.	.	.	.	.	.	.	8c	よ	.
=84	=84	=84	=84	=84	=84	=84	=84	=84	=84	=84	=84	=84	=84	=84	=84	=84	=84	=84
1FF	.	4B-	わく	1d	.	.	4r	.	.	2r	.	.	1r	.	.	4B-	わく	.
.	.	8A-L	て	.	.	.	2.f	.	.	.	.	.	.	.	.	8A-L	て	.
.	.	8GJ	さ	.	.	.	.	.	.	.	.	.	.	.	.	8GJ	さ	.
.	.	8r	.	.	.	.	.	.	.	2b-	.	.	.	.	.	8r	.	.
.	.	8GL	き	.	.	.	.	.	.	.	.	.	.	.	.	8GL	き	.
.	.	8G	み	.	.	.	.	.	.	.	.	.	.	.	.	8G	み	.
.	.	8GJ	が	.	.	.	.	.	.	.	.	.	.	.	.	8GJ	が	.
=85	=85	=85	=85	=85	=85	=85	=85	=85	=85	=85	=85	=85	=85	=85	=85	=85	=85	=85
1BB-	.	4F	大	1B-	.	.	4r	.	.	2r	.	.	1r	.	.	4F	大	.
.	.	8GL	事	.	.	.	2.d	.	.	.	.	.	.	.	.	8GL	事	.
.	.	[8A-J	だっ	.	.	.	.	.	.	.	.	.	.	.	.	[8A-J	だっ	.
.	.	8A-L]	.	.	.	.	.	.	.	2b-	.	.	.	.	.	8A-L]	.	.
.	.	8G	た	.	.	.	.	.	.	.	.	.	.	.	.	8G	た	.
.	.	8F	ん	.	.	.	.	.	.	.	.	.	.	.	.	8F	ん	.
.	.	[8E-J	だ	.	.	.	.	.	.	.	.	.	.	.	.	[8E-J	だ	.
=86	=86	=86	=86	=86	=86	=86	=86	=86	=86	=86	=86	=86	=86	=86	=86	=86	=86	=86
4.C	.	4E-]	ー	1c	.	.	4r	.	.	2r	.	.	1r	.	.	4E-]	ー	.
.	.	4r	.	.	.	.	2.e-	.	.	.	.	.	.	.	.	4r	.	.
[8E-	.	.	.	.	.	.	.	.	.	.	.	.	.	.	.	.	.	.
8E-L]	.	8r	.	.	.	.	.	.	.	2b-	.	.	.	.	.	8r	.	.
8D	.	8GL	ひ	.	.	.	.	.	.	.	.	.	.	.	.	8GL	ひ	.
8BB-	.	8B-	と	.	.	.	.	.	.	.	.	.	.	.	.	8B-	と	.
8BB-J	.	8cJ	り	.	.	.	.	.	.	.	.	.	.	.	.	8cJ	り	.
=87	=87	=87	=87	=87	=87	=87	=87	=87	=87	=87	=87	=87	=87	=87	=87	=87	=87	=87
1C	.	8e-L	で	1c	.	.	4r	.	.	2r	.	.	1r	.	.	8e-L	で	.
.	.	8e-	生	.	.	.	.	.	.	.	.	.	.	.	.	8e-	生	.
.	.	8d	き	.	.	.	2.e-	.	.	.	.	.	.	.	.	8d	き	.
.	.	8B-J	て	.	.	.	.	.	.	.	.	.	.	.	.	8B-J	て	.
.	.	8B-	い	.	.	.	.	.	.	2b-	.	.	.	.	.	8B-	い	.
.	.	4c	くん	.	.	.	.	.	.	.	.	.	.	.	.	4c	くん	.
.	.	8c	だ	.	.	.	.	.	.	.	.	.	.	.	.	8c	だ	.
=88	=88	=88	=88	=88	=88	=88	=88	=88	=88	=88	=88	=88	=88	=88	=88	=88	=88	=88
1FF	.	4B-	なん	1d	.	.	4r	.	.	2r	.	.	1r	.	.	4B-	なん	.
.	.	8A-L	て	.	.	.	2.f	.	.	.	.	.	.	.	.	8A-L	て	.
.	.	8GJ	さ	.	.	.	.	.	.	.	.	.	.	.	.	8GJ	さ	.
.	.	8r	.	.	.	.	.	.	.	2b-	.	.	.	.	.	8r	.	.
.	.	8GL	く	.	.	.	.	.	.	.	.	.	.	.	.	8GL	く	.
.	.	8G	ち	.	.	.	.	.	.	.	.	.	.	.	.	8G	ち	.
.	.	8GJ	を	.	.	.	.	.	.	.	.	.	.	.	.	8GJ	を	.
=89	=89	=89	=89	=89	=89	=89	=89	=89	=89	=89	=89	=89	=89	=89	=89	=89	=89	=89
1BB-	.	4F	つい	1B-	.	.	4r	.	.	2r	.	.	1r	.	.	4F	つい	.
.	.	8E-L	て	.	.	.	2.d	.	.	.	.	.	.	.	.	8E-L	て	.
.	.	8E-J	さ	.	.	.	.	.	.	.	.	.	.	.	.	8E-J	さ	.
.	.	4F	けん	.	.	.	.	.	.	2b-	.	.	.	.	.	4F	けん	.
.	.	8B-L	だ	.	.	.	.	.	.	.	.	.	.	.	.	8B-L	だ	.
.	.	8B-J	あ	.	.	.	.	.	.	.	.	.	.	.	.	8B-J	あ	.
=90	=90	=90	=90	=90	=90	=90	=90	=90	=90	=90	=90	=90	=90	=90	=90	=90	=90	=90
1C	.	8.A-L	の	1c	.	.	4r	.	.	2r	.	.	1r	.	.	8.A-L	の	.
.	.	16A-Jk	日	.	.	.	.	.	.	.	.	.	.	.	.	16A-Jk	日	.
.	.	8GL	か	.	.	.	2.e-	.	.	.	.	.	.	.	.	8GL	か	.
.	.	8GJ	ら	.	.	.	.	.	.	.	.	.	.	.	.	8GJ	ら	.
.	.	8r	.	.	.	.	.	.	.	2b-	.	.	.	.	.	8r	.	.
.	.	8G	変	.	.	.	.	.	.	.	.	.	.	.	.	8G	変	.
.	.	4B-	わっ	.	.	.	.	.	.	.	.	.	.	.	.	4B-	わっ	.
=91	=91	=91	=91	=91	=91	=91	=91	=91	=91	=91	=91	=91	=91	=91	=91	=91	=91	=91
1C	.	8e-L	て	1c	.	.	4r	.	.	2r	.	.	1r	.	.	8e-L	て	.
.	.	8e-	い	.	.	.	.	.	.	.	.	.	.	.	.	8e-	い	.
.	.	8d	く	.	.	.	2.e-	.	.	.	.	.	.	.	.	8d	く	.
.	.	[8B-J	僕	.	.	.	.	.	.	.	.	.	.	.	.	[8B-J	僕	.
.	.	8B-]	.	.	.	.	.	.	.	2b-	.	.	.	.	.	8B-]	.	.
.	.	4f	を	.	.	.	.	.	.	.	.	.	.	.	.	4f	を	.
.	.	8f	わ	.	.	.	.	.	.	.	.	.	.	.	.	8f	わ	.
=92	=92	=92	=92	=92	=92	=92	=92	=92	=92	=92	=92	=92	=92	=92	=92	=92	=92	=92
1FF	.	4e-	らえ	1d	.	.	4r	.	.	2r	.	.	1r	.	.	4e-	らえ	.
.	.	8dL	ば	.	.	.	2.f	.	.	.	.	.	.	.	.	8dL	ば	.
.	.	[8cJ	いい	.	.	.	.	.	.	.	.	.	.	.	.	[8cJ	いい	.
.	.	8cL]	.	.	.	.	.	.	.	2b-	.	.	.	.	.	8cL]	.	.
.	.	8cJ	ひ	.	.	.	.	.	.	.	.	.	.	.	.	8cJ	ひ	.
.	.	4c	とり	.	.	.	.	.	.	.	.	.	.	.	.	4c	とり	.
=93	=93	=93	=93	=93	=93	=93	=93	=93	=93	=93	=93	=93	=93	=93	=93	=93	=93	=93
1BB-	.	4B-	が	1B-	.	.	4r	.	.	2r	.	.	1r	.	.	4B-	が	.
.	.	8FL	こ	.	.	.	2.d	.	.	.	.	.	.	.	.	8FL	こ	.
.	.	[8A-J	わい	.	.	.	.	.	.	.	.	.	.	.	.	[8A-J	わい	.
.	.	8A-]	.	.	.	.	.	.	.	2b-	.	.	.	.	.	8A-]	.	.
.	.	4G	僕	.	.	.	.	.	.	.	.	.	.	.	.	4G	僕	.
.	.	[8E-	を	.	.	.	.	.	.	.	.	.	.	.	.	[8E-	を	.
=94	=94	=94	=94	=94	=94	=94	=94	=94	=94	=94	=94	=94	=94	=94	=94	=94	=94	=94
8CL	.	4E-]	ー	8cL	.	.	8e-L	.	.	8b-L	.	.	1r	.	.	4E-]	ー	.
8CJ	.	.	.	8cJ	.	.	8e-	.	.	8b-	.	.	.	.	.	.	.	.
4C'	.	4r	.	4c'	.	.	8e-	.	.	8b-	.	.	.	.	.	4r	.	.
.	.	.	.	.	.	.	[8e-J	.	.	[8b-J	.	.	.	.	.	.	.	.
2r	.	2r	.	4r	.	.	8e-L]	.	.	8b-L]	.	.	.	.	.	4r	.	.
.	.	.	.	.	.	.	8e-J	.	.	8b-J	.	.	.	.	.	.	.	.
.	.	.	.	8E-L	.	蹴	4e-	.	.	4b-	.	.	.	.	.	8E-L	.	蹴
.	.	.	.	8E-J	.	飛	.	.	.	.	.	.	.	.	.	8E-J	.	飛
=95	=95	=95	=95	=95	=95	=95	=95	=95	=95	=95	=95	=95	=95	=95	=95	=95	=95	=95
1r	.	4FF	.	4E-	.	ばし	4f	.	.	4a-	.	.	4c	.	.	4E-	.	ばし
.	.	4FF	.	4B-	.	て	4f	.	.	4a-	.	.	4c	.	.	4B-	.	て
.	.	4FF	.	4r	.	.	4f	.	.	4a-	.	.	4c	.	.	4r	.	.
.	.	4FF	.	8E-L	.	噛	4f	.	.	4a-	.	.	4c	.	.	8E-L	.	噛
.	.	.	.	8E-J	.	み	.	.	.	.	.	.	.	.	.	8E-J	.	み
=96	=96	=96	=96	=96	=96	=96	=96	=96	=96	=96	=96	=96	=96	=96	=96	=96	=96	=96
1r	.	4FF	.	4E-	.	付い	4f	.	.	4a-	.	.	4c	.	.	4E-	.	付い
.	.	4FF	.	4d	.	て	4f	.	.	4a-	.	.	4c	.	.	4d	.	て
.	.	4FF	.	4r	.	.	4f	.	.	4a-	.	.	4c	.	.	4r	.	.
.	.	4FF	.	8dL	.	い	4f	.	.	4a-	.	.	4c	.	.	8dL	.	い
.	.	.	.	8dJ	.	き	.	.	.	.	.	.	.	.	.	8dJ	.	き
=97	=97	=97	=97	=97	=97	=97	=97	=97	=97	=97	=97	=97	=97	=97	=97	=97	=97	=97
1r	.	4C	.	4e-	.	も	4cc	.	.	4ee-	.	.	4g	.	.	4e-	.	も
.	.	4C	.	8dL	.	で	4cc	.	.	4ee-	.	.	4g	.	.	8dL	.	で
.	.	.	.	[8B-J	.	き	.	.	.	.	.	.	.	.	.	[8B-J	.	き
.	.	4C	.	8B-]	.	.	4cc	.	.	4ee-	.	.	4g	.	.	8B-]	.	.
.	.	.	.	4F	.	なく	.	.	.	.	.	.	.	.	.	4F	.	なく
.	.	4C	.	.	.	.	4cc	.	.	4ee-	.	.	4g	.	.	.	.	.
.	.	.	.	[8G	.	て	.	.	.	.	.	.	.	.	.	[8G	.	て
=98	=98	=98	=98	=98	=98	=98	=98	=98	=98	=98	=98	=98	=98	=98	=98	=98	=98	=98
1r	.	4C	.	4G]	.	.	4cc	.	.	4ee-	.	.	4g	.	.	4G]	.	.
.	.	4C	.	4r	.	.	4cc	.	.	4ee-	.	.	4g	.	.	4r	.	.
.	.	4C	.	8B-L	.	さ	4cc	.	.	4ee-	.	.	4g	.	.	8B-L	.	さ
.	.	.	.	8A-	.	わ	.	.	.	.	.	.	.	.	.	8A-	.	わ
.	.	4C	.	8G	.	ぐ	4cc	.	.	4ee-	.	.	4g	.	.	8G	.	ぐ
.	.	.	.	8A-J	.	あ	.	.	.	.	.	.	.	.	.	8A-J	.	あ
=99	=99	=99	=99	=99	=99	=99	=99	=99	=99	=99	=99	=99	=99	=99	=99	=99	=99	=99
1r	.	4AA-	.	4B-	.	た	4a-	.	.	4cc	.	.	4e-	.	.	4B-	.	た
.	.	4AA-	.	8A-L	.	ま	4a-	.	.	4cc	.	.	4e-	.	.	8A-L	.	ま
.	.	.	.	[8GJ	.	と	.	.	.	.	.	.	.	.	.	[8GJ	.	と
.	.	4AA-	.	8GL]	.	.	4a-	.	.	4cc	.	.	4e-	.	.	8GL]	.	.
.	.	.	.	8A-	.	は	.	.	.	.	.	.	.	.	.	8A-	.	は
.	.	4AA-	.	8A-	.	ら	4a-	.	.	4cc	.	.	4e-	.	.	8A-	.	ら
.	.	.	.	8A-J	.	の	.	.	.	.	.	.	.	.	.	8A-J	.	の
=100	=100	=100	=100	=100	=100	=100	=100	=100	=100	=100	=100	=100	=100	=100	=100	=100	=100	=100
1r	.	4AA-	.	4B-	.	お	4a-	.	.	4cc	.	.	4e-	.	.	4B-	.	お
.	.	4AA-	.	8A-L	.	く	4a-	.	.	4cc	.	.	4e-	.	.	8A-L	.	く
.	.	.	.	[8GJ	.	が	.	.	.	.	.	.	.	.	.	[8GJ	.	が
.	.	4AA-	.	8GL]	.	.	4a-	.	.	4cc	.	.	4e-	.	.	8GL]	.	.
.	.	.	.	8G	.	ぐ	.	.	.	.	.	.	.	.	.	8G	.	ぐ
.	.	4AA-	.	8G	.	しゃ	4a-	.	.	4cc	.	.	4e-	.	.	8G	.	しゃ
.	.	.	.	8GJ	.	ぐ	.	.	.	.	.	.	.	.	.	8GJ	.	ぐ
=101	=101	=101	=101	=101	=101	=101	=101	=101	=101	=101	=101	=101	=101	=101	=101	=101	=101	=101
1r	.	4BB-	.	4F	.	しゃ	4b-	.	.	4dd	.	.	4f	.	.	4F	.	しゃ
.	.	4BB-	.	8E-L	.	に	4b-	.	.	4dd	.	.	4f	.	.	8E-L	.	に
.	.	.	.	[8FJ	.	なっ	.	.	.	.	.	.	.	.	.	[8FJ	.	なっ
.	.	4BB-	.	8F]	.	.	4b-	.	.	4dd	.	.	4f	.	.	8F]	.	.
.	.	.	.	4G	.	たっ	.	.	.	.	.	.	.	.	.	4G	.	たっ
.	.	4BB-	.	.	.	.	4b-	.	.	4dd	.	.	4f	.	.	.	.	.
.	.	.	.	8G	.	て	.	.	.	.	.	.	.	.	.	8G	.	て
=102	=102	=102	=102	=102	=102	=102	=102	=102	=102	=102	=102	=102	=102	=102	=102	=102	=102	=102
1r	.	4BB-	.	2F	.	ー	4b-	.	.	4dd	.	.	4f	.	.	2F	.	ー
.	.	4BB-	.	.	.	.	4b-	.	.	4dd	.	.	4f	.	.	.	.	.
.	.	4BB-	.	4r	.	.	4b-	.	.	4dd	.	.	4f	.	.	4r	.	.
.	.	4BB-	.	4E-	.	て	4b-	.	.	4dd	.	.	4f	.	.	4E-	.	て
=103	=103	=103	=103	=103	=103	=103	=103	=103	=103	=103	=103	=103	=103	=103	=103	=103	=103	=103
1r	.	4FF	.	4E-	.	らい	4f	.	.	4a-	.	.	4c	.	.	4E-	.	らい
.	.	4FF	.	4B-	.	も	4f	.	.	4a-	.	.	4c	.	.	4B-	.	も
.	.	4FF	.	4r	.	.	4f	.	.	4a-	.	.	4c	.	.	4r	.	.
.	.	4FF	.	4E-	.	け	4f	.	.	4a-	.	.	4c	.	.	4E-	.	け
=104	=104	=104	=104	=104	=104	=104	=104	=104	=104	=104	=104	=104	=104	=104	=104	=104	=104	=104
1r	.	4FF	.	4E-	.	れん	4f	.	.	4a-	.	.	4c	.	.	4E-	.	れん
.	.	4FF	.	4d	.	も	4f	.	.	4a-	.	.	4c	.	.	4d	.	も
.	.	4FF	.	4r	.	.	4f	.	.	4a-	.	.	4c	.	.	4r	.	.
.	.	4FF	.	8dL	.	消	4f	.	.	4a-	.	.	4c	.	.	8dL	.	消
.	.	.	.	8dJ	.	え	.	.	.	.	.	.	.	.	.	8dJ	.	え
=105	=105	=105	=105	=105	=105	=105	=105	=105	=105	=105	=105	=105	=105	=105	=105	=105	=105	=105
1r	.	4C	.	4e-	.	て	4cc	.	.	4ee-	.	.	4g	.	.	4e-	.	て
.	.	4C	.	8dL	.	し	4cc	.	.	4ee-	.	.	4g	.	.	8dL	.	し
.	.	.	.	[8B-J	.	まう	.	.	.	.	.	.	.	.	.	[8B-J	.	まう
.	.	4C	.	8B-]	.	.	4cc	.	.	4ee-	.	.	4g	.	.	8B-]	.	.
.	.	.	.	4F	.	くらい	.	.	.	.	.	.	.	.	.	4F	.	くらい
.	.	4C	.	.	.	.	4cc	.	.	4ee-	.	.	4g	.	.	.	.	.
.	.	.	.	[8G	.	に	.	.	.	.	.	.	.	.	.	[8G	.	に
=106	=106	=106	=106	=106	=106	=106	=106	=106	=106	=106	=106	=106	=106	=106	=106	=106	=106	=106
1r	.	4C	.	4G]	.	ー	4cc	.	.	4ee-	.	.	4g	.	.	4G]	.	ー
.	.	4C	.	4r	.	.	4cc	.	.	4ee-	.	.	4g	.	.	4r	.	.
.	.	4C	.	8B-L	.	い	4cc	.	.	4ee-	.	.	4g	.	.	8B-L	.	い
.	.	.	.	8A-	.	ま	.	.	.	.	.	.	.	.	.	8A-	.	ま
.	.	4C	.	8G	.	は	4cc	.	.	4ee-	.	.	4g	.	.	8G	.	は
.	.	.	.	8A-J	.	さ	.	.	.	.	.	.	.	.	.	8A-J	.	さ
=107	=107	=107	=107	=107	=107	=107	=107	=107	=107	=107	=107	=107	=107	=107	=107	=107	=107	=107
1r	.	4FF	.	4B-	.	わっ	4f	.	.	4a-	.	.	4d	.	.	4B-	.	わっ
.	.	4FF	.	4E-	.	て	4f	.	.	4a-	.	.	4d	.	.	4E-	.	て
.	.	4FF	.	4r	.	.	4f	.	.	4a-	.	.	4d	.	.	4r	.	.
.	.	4FF	.	4E-	.	い	4f	.	.	4a-	.	.	4d	.	.	4E-	.	い
=108	=108	=108	=108	=108	=108	=108	=108	=108	=108	=108	=108	=108	=108	=108	=108	=108	=108	=108
1r	.	4GG	.	8cL	.	た	4g	.	.	4b-	.	.	4e-	.	.	8cL	.	た
.	.	.	.	8cJ	.	い	.	.	.	.	.	.	.	.	.	8cJ	.	い
.	.	4GG	.	4B-	.	んだ	4g	.	.	4b-	.	.	4e-	.	.	4B-	.	んだ
.	.	4GG	.	4r	.	.	4g	.	.	4b-	.	.	4e-	.	.	4r	.	.
.	.	4GG	.	8B-L	.	き	4g	.	.	4b-	.	.	4e-	.	.	8B-L	.	き
.	.	.	.	8B-J	.	み	.	.	.	.	.	.	.	.	.	8B-J	.	み
=109	=109	=109	=109	=109	=109	=109	=109	=109	=109	=109	=109	=109	=109	=109	=109	=109	=109	=109
1r	.	4AA-	.	2c	.	の	4a-	.	.	4cc	.	.	4e-	.	.	2c	.	の
.	.	4AA-	.	.	.	.	4a-	.	.	4cc	.	.	4e-	.	.	.	.	.
.	.	4AA-	.	2e-	.	こ	4a-	.	.	4cc	.	.	4e-	.	.	2e-	.	こ
.	.	4AA-	.	.	.	.	4a-	.	.	4cc	.	.	4e-	.	.	.	.	.
=110	=110	=110	=110	=110	=110	=110	=110	=110	=110	=110	=110	=110	=110	=110	=110	=110	=110	=110
1r	.	4BB-	.	4.f	.	こ	4b-	.	.	4dd	.	.	4f	.	.	4.f	.	こ
.	.	4BB-	.	.	.	.	4b-	.	.	4dd	.	.	4f	.	.	.	.	.
.	.	.	.	8e-	.	ろ	.	.	.	.	.	.	.	.	.	8e-	.	ろ
.	.	4BB-	.	[2d	.	に	4b-	.	.	4dd	.	.	4f	.	.	[2d	.	に
.	.	4BB-	.	.	.	.	4b-	.	.	4dd	.	.	4f	.	.	.	.	.
=111	=111	=111	=111	=111	=111	=111	=111	=111	=111	=111	=111	=111	=111	=111	=111	=111	=111	=111
1r	.	8BB-L	.	2d]	ー	.	8b-L	.	.	8ffL	.	.	8fL	.	.	2d]	ー	.
.	.	8BB-J	.	.	.	.	8b-J	.	.	8ffJ	.	.	8fJ	.	.	.	.	.
.	.	8r	.	.	.	.	8r	.	.	8r	.	.	8r	.	.	.	.	.
.	.	8BB-	.	.	.	.	8b-	.	.	8ff	.	.	8f	.	.	.	.	.
.	.	8r	.	2r	.	.	8r	.	.	8r	.	.	8r	.	.	2r	.	.
.	.	8BB-	.	.	.	.	8b-	.	.	8ff	.	.	8f	.	.	.	.	.
.	.	8r	.	.	.	.	8r	.	.	8r	.	.	8r	.	.	.	.	.
.	.	8BB-	.	.	.	.	8b-	.	.	8ff	.	.	8f	.	.	.	.	.
=112	=112	=112	=112	=112	=112	=112	=112	=112	=112	=112	=112	=112	=112	=112	=112	=112	=112	=112
1r	.	1r	.	1r	.	.	1r	.	.	4r	.	.	1r	.	.	4r	.	.
.	.	.	.	.	.	.	.	.	.	8.gL	ぼ	.	.	.	.	8.gL	ぼ	.
.	.	.	.	.	.	.	.	.	.	16gJk	く	.	.	.	.	16gJk	く	.
.	.	.	.	.	.	.	.	.	.	4f	たち	.	.	.	.	4f	たち	.
.	.	.	.	.	.	.	.	.	.	4e-	は	.	.	.	.	4e-	は	.
=113	=113	=113	=113	=113	=113	=113	=113	=113	=113	=113	=113	=113	=113	=113	=113	=113	=113	=113
1r	.	4AA-	.	4c	.	.	4a-	.	.	4c	きっ	.	4e-	.	.	4c	きっ	.
.	.	8AA-L	.	8ccL	.	.	8a-L	.	.	8gL	と	.	8e-L	.	.	8gL	と	.
.	.	[8AA-J	.	8b-J	.	.	[8a-J	.	.	8fJ	い	.	[8e-J	.	.	8fJ	い	.
.	.	8AA-L]	.	8b-	.	.	8a-L]	.	.	8f	つ	.	8e-L]	.	.	8f	つ	.
.	.	8AA-	.	4a-	.	.	8a-	.	.	4e-	か	.	8e-	.	.	4e-	か	.
.	.	8AA-	.	.	.	.	8a-	.	.	.	.	.	8e-	.	.	.	.	.
.	.	8AA-J	.	[8g	.	.	8a-J	.	.	[8d	遠	.	8e-J	.	.	[8d	遠	.
=114	=114	=114	=114	=114	=114	=114	=114	=114	=114	=114	=114	=114	=114	=114	=114	=114	=114	=114
1r	.	4BB-	.	8gL]	.	.	4b-	.	.	8dL]	.	.	4f	.	.	8dL]	.	.
.	.	.	.	8a-	.	.	.	.	.	8e-	く	.	.	.	.	8e-	く	.
.	.	8BB-L	.	8g	.	.	8b-L	.	.	8d	は	.	8fL	.	.	8d	は	.
.	.	[8BB-J	.	8fJ	.	.	[8b-J	.	.	8cJ	な	.	[8fJ	.	.	8cJ	な	.
.	.	8BB-L]	.	8fL	.	.	8b-L]	.	.	8cL	れ	.	8fL]	.	.	8cL	れ	.
.	.	8BB-	.	8dJ	.	.	8b-	.	.	8B-J	た	.	8f	.	.	8B-J	た	.
.	.	8BB-	.	4r	.	.	8b-	.	.	8r	.	.	8f	.	.	8r	.	.
.	.	8BB-J	.	.	.	.	8b-J	.	.	[8e-	たい	.	8fJ	.	.	[8e-	たい	.
=115	=115	=115	=115	=115	=115	=115	=115	=115	=115	=115	=115	=115	=115	=115	=115	=115	=115	=115
1r	.	4C	.	1r	.	.	4b-	.	.	8e-L]	.	.	4e-	.	.	8e-L]	.	.
.	.	.	.	.	.	.	.	.	.	8d	よ	.	.	.	.	8d	よ	.
.	.	8CL	.	.	.	.	8b-L	.	.	8B-	う	.	8e-L	.	.	8B-	う	.
.	.	[8CJ	.	.	.	.	[8b-J	.	.	[8cJ	に	.	[8e-J	.	.	[8cJ	に	.
.	.	8CL]	.	.	.	.	8b-L]	.	.	8cL]	.	.	8e-L]	.	.	8cL]	.	.
.	.	8C	.	.	.	.	8b-	.	.	8B-	す	.	8e-	.	.	8B-	す	.
.	.	8C	.	.	.	.	8b-	.	.	8A-	ら	.	8e-	.	.	8A-	ら	.
.	.	8CJ	.	.	.	.	8b-J	.	.	[8GJ	.	手	8e-J	.	.	[8GJ	.	手
=116	=116	=116	=116	=116	=116	=116	=116	=116	=116	=116	=116	=116	=116	=116	=116	=116	=116	=116
1r	.	4E-	.	1r	.	.	4b-	.	.	8GL]	.	.	4e-	.	.	8GL]	.	.
.	.	.	.	.	.	.	.	.	.	8A-	が	.	.	.	.	8A-	が	.
.	.	8E-L	.	.	.	.	8b-L	.	.	8B-	と	.	8e-L	.	.	8B-	と	.
.	.	[8E-J	.	.	.	.	[8b-J	.	.	8fJ	ど	.	[8e-J	.	.	8fJ	ど	.
.	.	8E-L]	.	.	.	.	8b-L]	.	.	8fL	い	.	8e-L]	.	.	8fL	い	.
.	.	8E-	.	.	.	.	8b-	.	.	8e-J	て	.	8e-	.	.	8e-J	て	.
.	.	8E-	.	.	.	.	8b-	.	.	4r	.	.	8e-	.	.	4r	.	.
.	.	8E-J	.	.	.	.	8b-J	.	.	.	.	.	8e-J	.	.	.	.	.
=117	=117	=117	=117	=117	=117	=117	=117	=117	=117	=117	=117	=117	=117	=117	=117	=117	=117	=117
1r	.	4AA-	.	1e-	.	.	1ee-	.	.	8cL	夜	.	1b-	.	.	8cL	夜	.
.	.	.	.	.	.	.	.	.	.	8c	明	.	.	.	.	8c	明	.
.	.	8AA-L	.	.	.	.	.	.	.	8g	け	.	.	.	.	8g	け	.
.	.	[8AA-J	.	.	.	.	.	.	.	[8fJ	前	.	.	.	.	[8fJ	前	.
.	.	8AA-L]	.	.	.	.	.	.	.	8f]	.	.	.	.	.	8f]	.	.
.	.	8AA-	.	.	.	.	.	.	.	4e-	を	.	.	.	.	4e-	を	.
.	.	8AA-	.	.	.	.	.	.	.	.	.	.	.	.	.	.	.	.
.	.	8AA-J	.	.	.	.	.	.	.	[8a-	手	.	.	.	.	[8a-	手	.
=118	=118	=118	=118	=118	=118	=118	=118	=118	=118	=118	=118	=118	=118	=118	=118	=118	=118	=118
1r	.	4BBn	.	1f	.	.	1dd	.	.	8a-L]	.	.	1bn	.	.	8a-L]	.	.
.	.	.	.	.	.	.	.	.	.	8g	に	.	.	.	.	8g	に	.
.	.	8BBL	.	.	.	.	.	.	.	8f	入	.	.	.	.	8f	入	.
.	.	[8BBJ	.	.	.	.	.	.	.	8e-J	れ	.	.	.	.	8e-J	れ	.
.	.	8BBL]	.	.	.	.	.	.	.	8dL	て	.	.	.	.	8dL	て	.
.	.	8BB	.	.	.	.	.	.	.	8e-	わ	.	.	.	.	8e-	わ	.
.	.	8BB	.	.	.	.	.	.	.	8f	ら	.	.	.	.	8f	ら	.
.	.	8BBJ	.	.	.	.	.	.	.	[8gJ	おう	.	.	.	.	[8gJ	おう	.
=119	=119	=119	=119	=119	=119	=119	=119	=119	=119	=119	=119	=119	=119	=119	=119	=119	=119	=119
1r	.	4C	.	2.e-	.	.	1ee-	.	.	1g]	ー	.	1b-	.	.	1g]	ー	.
.	.	8CL	.	.	.	.	.	.	.	.	.	.	.	.	.	.	.	.
.	.	[8CJ	.	.	.	.	.	.	.	.	.	.	.	.	.	.	.	.
.	.	8CL]	.	.	.	.	.	.	.	.	.	.	.	.	.	.	.	.
.	.	8C	.	.	.	.	.	.	.	.	.	.	.	.	.	.	.	.
.	.	8C	.	8r	.	.	.	.	.	.	.	.	.	.	.	.	.	.
.	.	8CJ	.	8g	.	.	.	.	.	.	.	.	.	.	.	.	.	.
=120	=120	=120	=120	=120	=120	=120	=120	=120	=120	=120	=120	=120	=120	=120	=120	=120	=120	=120
1r	.	8E-L	.	1e-	.	.	1ee-	.	.	4r	.	.	1b-	.	.	4r	.	.
.	.	8E-	.	.	.	.	.	.	.	.	.	.	.	.	.	.	.	.
.	.	8E-	.	.	.	.	.	.	.	4g	そう	.	.	.	.	4g	そう	.
.	.	8E-J	.	.	.	.	.	.	.	.	.	.	.	.	.	.	.	.
.	.	8E-L	.	.	.	.	.	.	.	4f	やっ	.	.	.	.	4f	やっ	.
.	.	8E-	.	.	.	.	.	.	.	.	.	.	.	.	.	.	.	.
.	.	8E-	.	.	.	.	.	.	.	4e-	て	.	.	.	.	4e-	て	.
.	.	8E-J	.	.	.	.	.	.	.	.	.	.	.	.	.	.	.	.
=121	=121	=121	=121	=121	=121	=121	=121	=121	=121	=121	=121	=121	=121	=121	=121	=121	=121	=121
1r	.	4AA-	.	8cL	.	.	4a-	.	.	8cL	あ	.	4e-	.	.	8cL	あ	.
.	.	.	.	8c	.	.	.	.	.	8c	お	.	.	.	.	8c	お	.
.	.	8AA-L	.	8cc	.	.	8a-L	.	.	8g	く	.	8e-L	.	.	8g	く	.
.	.	[8AA-J	.	[8b-J	.	.	[8a-J	.	.	[8fJ	燃え	.	[8e-J	.	.	[8fJ	燃え	.
.	.	8AA-L]	.	8b-]	.	.	8a-L]	.	.	8f]	.	.	8e-L]	.	.	8f]	.	.
.	.	8AA-	.	4a-	.	.	8a-	.	.	4e-	る	.	8e-	.	.	4e-	る	.
.	.	8AA-	.	.	.	.	8a-	.	.	.	.	.	8e-	.	.	.	.	.
.	.	8AA-J	.	[8g	.	.	8a-J	.	.	[8d	い	.	8e-J	.	.	[8d	い	.
=122	=122	=122	=122	=122	=122	=122	=122	=122	=122	=122	=122	=122	=122	=122	=122	=122	=122	=122
1r	.	4BB-	.	8gL]	.	.	4b-	.	.	8dL]	.	.	4f	.	.	8dL]	.	.
.	.	.	.	8a-	.	.	.	.	.	8e-	ろ	.	.	.	.	8e-	ろ	.
.	.	8BB-L	.	8g	.	.	8b-L	.	.	8d	に	.	8fL	.	.	8d	に	.
.	.	[8BB-J	.	8fJ	.	.	[8b-J	.	.	8cJ	染	.	[8fJ	.	.	8cJ	染	.
.	.	8BB-L]	.	8fL	.	.	8b-L]	.	.	8cL	ま	.	8fL]	.	.	8cL	ま	.
.	.	8BB-	.	8dJ	.	.	8b-	.	.	8B-J	り	.	8f	.	.	8B-J	り	.
.	.	8BB-	.	4r	.	.	8b-	.	.	8r	.	.	8f	.	.	8r	.	.
.	.	8BB-J	.	.	.	.	8b-J	.	.	[8e-	お	.	8fJ	.	.	[8e-	お	.
=123	=123	=123	=123	=123	=123	=123	=123	=123	=123	=123	=123	=123	=123	=123	=123	=123	=123	=123
1r	.	4C	.	1r	.	.	4b-	.	.	8e-L]	.	.	4e-	.	.	8e-L]	.	.
.	.	.	.	.	.	.	.	.	.	8d	ぼ	.	.	.	.	8d	ぼ	.
.	.	8CL	.	.	.	.	8b-L	.	.	8B-	ろ	.	8e-L	.	.	8B-	ろ	.
.	.	[8CJ	.	.	.	.	[8b-J	.	.	[8cJ	げ	.	[8e-J	.	.	[8cJ	げ	.
.	.	8CL]	.	.	.	.	8b-L]	.	.	8cL]	.	.	8e-L]	.	.	8cL]	.	.
.	.	8C	.	.	.	.	8b-	.	.	8B-	な	.	8e-	.	.	8B-	な	.
.	.	8C	.	.	.	.	8b-	.	.	8A-	ま	.	8e-	.	.	8A-	ま	.
.	.	8CJ	.	.	.	.	8b-J	.	.	[8GJ	.	ち	8e-J	.	.	[8GJ	.	ち
=124	=124	=124	=124	=124	=124	=124	=124	=124	=124	=124	=124	=124	=124	=124	=124	=124	=124	=124
1r	.	4E-	.	1r	.	.	4b-	.	.	8GL]	.	.	4e-	.	.	8GL]	.	.
.	.	.	.	.	.	.	.	.	.	8A-	の	.	.	.	.	8A-	の	.
.	.	8E-L	.	.	.	.	8b-L	.	.	8B-	向	.	8e-L	.	.	8B-	向	.
.	.	[8E-J	.	.	.	.	[8b-J	.	.	[8fJ	こう	.	[8e-J	.	.	[8fJ	こう	.
.	.	8E-L]	.	.	.	.	8b-L]	.	.	8fL]	.	.	8e-L]	.	.	8fL]	.	.
.	.	8E-	.	.	.	.	8b-	.	.	8e-J	へ	.	8e-	.	.	8e-J	へ	.
.	.	8E-	.	.	.	.	8b-	.	.	4r	.	.	8e-	.	.	4r	.	.
.	.	8E-J	.	.	.	.	8b-J	.	.	.	.	.	8e-J	.	.	.	.	.
=125	=125	=125	=125	=125	=125	=125	=125	=125	=125	=125	=125	=125	=125	=125	=125	=125	=125	=125
1r	.	4AA-	.	1e-	.	.	1ee-	.	.	8cL	手	.	1b-	.	.	8cL	手	.
.	.	.	.	.	.	.	.	.	.	8c	を	.	.	.	.	8c	を	.
.	.	8AA-L	.	.	.	.	.	.	.	8g	つ	.	.	.	.	8g	つ	.
.	.	[8AA-J	.	.	.	.	.	.	.	[8fJ	ない	.	.	.	.	[8fJ	ない	.
.	.	8AA-L]	.	.	.	.	.	.	.	8fL]	.	.	.	.	.	8fL]	.	.
.	.	8AA-	.	.	.	.	.	.	.	8e-	で	.	.	.	.	8e-	で	.
.	.	8AA-	.	.	.	.	.	.	.	8e-	は	.	.	.	.	8e-	は	.
.	.	8AA-J	.	.	.	.	.	.	.	[8a-J	しっ	.	.	.	.	[8a-J	しっ	.
=126	=126	=126	=126	=126	=126	=126	=126	=126	=126	=126	=126	=126	=126	=126	=126	=126	=126	=126
1r	.	4BBn	.	1f	.	.	1dd	.	.	8a-L]	.	.	1bn	.	.	8a-L]	.	.
.	.	.	.	.	.	.	.	.	.	8g	て	.	.	.	.	8g	て	.
.	.	8BBL	.	.	.	.	.	.	.	8f	い	.	.	.	.	8f	い	.
.	.	[8BBJ	.	.	.	.	.	.	.	8e-J	け	.	.	.	.	8e-J	け	.
.	.	8BBL]	.	.	.	.	.	.	.	8dL	る	.	.	.	.	8dL	る	.
.	.	8BB	.	.	.	.	.	.	.	8c	は	.	.	.	.	8c	は	.
.	.	8BB	.	.	.	.	.	.	.	8d	ず	.	.	.	.	8d	ず	.
.	.	8BBJ	.	.	.	.	.	.	.	[8e-J	だ	.	.	.	.	[8e-J	だ	.
=127	=127	=127	=127	=127	=127	=127	=127	=127	=127	=127	=127	=127	=127	=127	=127	=127	=127	=127
1r	.	4C	.	1e-	.	.	1ee-	.	.	1e-]	ー	.	1b-	.	.	1e-]	ー	.
.	.	8CL	.	.	.	.	.	.	.	.	.	.	.	.	.	.	.	.
.	.	[8CJ	.	.	.	.	.	.	.	.	.	.	.	.	.	.	.	.
.	.	8CL]	.	.	.	.	.	.	.	.	.	.	.	.	.	.	.	.
.	.	8C	.	.	.	.	.	.	.	.	.	.	.	.	.	.	.	.
.	.	8C	.	.	.	.	.	.	.	.	.	.	.	.	.	.	.	.
.	.	8CJ	.	.	.	.	.	.	.	.	.	.	.	.	.	.	.	.
=128	=128	=128	=128	=128	=128	=128	=128	=128	=128	=128	=128	=128	=128	=128	=128	=128	=128	=128
1r	.	8E-L	.	1r	.	.	8b-L	.	.	2r	.	.	8e-L	.	.	2r	.	.
.	.	8E-	.	.	.	.	8b-	.	.	.	.	.	8e-	.	.	.	.	.
.	.	8E-	.	.	.	.	8b-	.	.	.	.	.	8e-	.	.	.	.	.
.	.	[8E-J	.	.	.	.	[8b-J	.	.	.	.	.	[8e-J	.	.	.	.	.
.	.	8E-L]	.	.	.	.	8b-L]	.	.	4r	.	.	8e-L]	.	.	4r	.	.
.	.	8E-	.	.	.	.	8b-	.	.	.	.	.	8e-	.	.	.	.	.
.	.	8E-	.	.	.	.	8b-	.	.	8e-L	き	.	8e-	.	.	8e-L	き	.
.	.	8E-J	.	.	.	.	8b-J	.	.	8dJ	み	.	8e-J	.	.	8dJ	み	.
=129	=129	=129	=129	=129	=129	=129	=129	=129	=129	=129	=129	=129	=129	=129	=129	=129	=129	=129
1r	.	8AA-L	.	4r	.	.	8b-L	.	.	4c	と	.	8e-L	.	.	4c	と	.
.	.	8AA-J	.	.	.	.	8b-J	.	.	.	.	.	8e-J	.	.	.	.	.
.	.	8r	.	8gL	.	.	8r	.	.	8e-L	未	.	8r	.	.	8e-L	未	.
.	.	[8BB-	.	[8fJ	.	.	[8a-	.	.	[8dJ	来	.	[8f	.	.	[8dJ	来	.
.	.	8BB-L]	.	8fL]	.	.	8a-L]	.	.	8dL]	.	.	8fL]	.	.	8dL]	.	.
.	.	8BB-J	.	8g	.	.	8a-	.	.	8e-	を	.	8f	.	.	8e-	を	.
.	.	4BB-	.	8a-	.	.	8a-	.	.	8f	ぬ	.	8f	.	.	8f	ぬ	.
.	.	.	.	8a-J	.	.	8a-J	.	.	8fJ	す	.	8fJ	.	.	8fJ	す	.
=130	=130	=130	=130	=130	=130	=130	=130	=130	=130	=130	=130	=130	=130	=130	=130	=130	=130	=130
1r	.	8GGL	.	8a-L	.	.	8gL	.	.	8fL	み	.	8dL	.	.	8fL	み	.
.	.	8GGJ	.	8a-	.	.	8gJ	.	.	8f	え	.	8dJ	.	.	8f	え	.
.	.	8r	.	8b-	.	.	8r	.	.	8g	が	.	8r	.	.	8g	が	.
.	.	[8C	.	8gJ	.	.	[8b-	.	.	8e-J	く	.	[8c	.	.	8e-J	く	.
.	.	8CL]	.	4r	.	.	8b-L]	.	.	4r	.	.	8cL]	.	.	4r	.	.
.	.	8CJ	.	.	.	.	8b-	.	.	.	.	.	8c	.	.	.	.	.
.	.	4C	.	8gL	.	.	8b-	.	.	8e-L	ひ	.	8c	.	.	8e-L	ひ	.
.	.	.	.	8fJ	.	.	8b-J	.	.	8dJ	ね	.	8cJ	.	.	8dJ	ね	.
=131	=131	=131	=131	=131	=131	=131	=131	=131	=131	=131	=131	=131	=131	=131	=131	=131	=131	=131
1r	.	8BBnL	.	4g	.	.	8bnL	.	.	4e-	り	.	8BnL	.	.	4e-	り	.
.	.	8BBJ	.	.	.	.	8bJ	.	.	.	.	.	8BJ	.	.	.	.	.
.	.	8r	.	8e-L	.	.	8r	.	.	8BnL	の	.	8r	.	.	8BnL	の	.
.	.	[8D-X	.	[8fJ	.	.	[8dd-X	.	.	[8d-XJ	な	.	[8d-X	.	.	[8d-XJ	な	.
.	.	8D-L]	.	8f]	.	.	8dd-L]	.	.	8d-]	い	.	8d-L]	.	.	8d-]	い	.
.	.	8D-J	.	4cc	.	.	8dd-	.	.	4a-	ストー	.	8d-	.	.	4a-	ストー	.
.	.	4D-	.	.	.	.	8dd-	.	.	.	.	.	8d-	.	.	.	.	.
.	.	.	.	[8b-	.	.	8dd-J	.	.	[8g	リー	.	8d-J	.	.	[8g	リー	.
=132	=132	=132	=132	=132	=132	=132	=132	=132	=132	=132	=132	=132	=132	=132	=132	=132	=132	=132
1r	.	4E-	.	8b-]	.	.	4ee-	.	.	8g]	.	.	4e-	.	.	8g]	.	.
.	.	.	.	4.g	.	.	.	.	.	4.e-	を	.	.	.	.	4.e-	を	.
.	.	4E-	.	.	.	.	4ee-	.	.	.	.	.	4e-	.	.	.	.	.
.	.	8E-L	.	2r	.	.	8ee-L	.	.	2r	.	.	8e-L	.	.	2r	.	.
.	.	8E-J	.	.	.	.	8ee-J	.	.	.	.	.	8e-J	.	.	.	.	.
.	.	4r	.	.	.	.	4r	.	.	.	.	.	4r	.	.	.	.	.
=133	=133	=133	=133	=133	=133	=133	=133	=133	=133	=133	=133	=133	=133	=133	=133	=133	=133	=133
1r	.	4AA-	.	8B-L	.	.	1r	.	.	1r	.	.	1r	.	.	1r	.	.
.	.	.	.	8cJ	.	.	.	.	.	.	.	.	.	.	.	.	.	.
.	.	8r	.	8r	.	.	.	.	.	.	.	.	.	.	.	.	.	.
.	.	[8AA-	.	8g	.	.	.	.	.	.	.	.	.	.	.	.	.	.
.	.	8AA-L]	.	8r	.	.	.	.	.	.	.	.	.	.	.	.	.	.
.	.	8AA-J	.	8e-L	.	.	.	.	.	.	.	.	.	.	.	.	.	.
.	.	4r	.	8f	.	.	.	.	.	.	.	.	.	.	.	.	.	.
.	.	.	.	8gJ	.	.	.	.	.	.	.	.	.	.	.	.	.	.
=134	=134	=134	=134	=134	=134	=134	=134	=134	=134	=134	=134	=134	=134	=134	=134	=134	=134	=134
1r	.	4BB-	.	8fL	.	.	1r	.	.	1r	.	.	1r	.	.	1r	.	.
.	.	.	.	16gL	.	.	.	.	.	.	.	.	.	.	.	.	.	.
.	.	.	.	16fJJ	.	.	.	.	.	.	.	.	.	.	.	.	.	.
.	.	8r	.	8e-L	.	.	.	.	.	.	.	.	.	.	.	.	.	.
.	.	[8BB-	.	8dJ	.	.	.	.	.	.	.	.	.	.	.	.	.	.
.	.	8BB-L]	.	8e-L	.	.	.	.	.	.	.	.	.	.	.	.	.	.
.	.	8BB-J	.	8c	.	.	.	.	.	.	.	.	.	.	.	.	.	.
.	.	4r	.	8B-	.	.	.	.	.	.	.	.	.	.	.	.	.	.
.	.	.	.	8GJ	.	.	.	.	.	.	.	.	.	.	.	.	.	.
=135	=135	=135	=135	=135	=135	=135	=135	=135	=135	=135	=135	=135	=135	=135	=135	=135	=135	=135
1r	.	4C	.	8B-L	.	.	1r	.	.	1r	.	.	8B-L	.	.	1r	.	.
.	.	.	.	8cJ	.	.	.	.	.	.	.	.	8cJ	.	.	.	.	.
.	.	8r	.	8r	.	.	.	.	.	.	.	.	8r	.	.	.	.	.
.	.	[8C	.	8g	.	.	.	.	.	.	.	.	8g	.	.	.	.	.
.	.	4C]	.	8r	.	.	.	.	.	.	.	.	8r	.	.	.	.	.
.	.	.	.	8e-L	.	.	.	.	.	.	.	.	8e-L	.	.	.	.	.
.	.	4r	.	8f	.	.	.	.	.	.	.	.	8f	.	.	.	.	.
.	.	.	.	8gJ	.	.	.	.	.	.	.	.	8gJ	.	.	.	.	.
=136	=136	=136	=136	=136	=136	=136	=136	=136	=136	=136	=136	=136	=136	=136	=136	=136	=136	=136
1r	.	4E-	.	8fL	.	.	1r	.	.	1r	.	.	8fL	.	.	1r	.	.
.	.	.	.	16gL	.	.	.	.	.	.	.	.	16gL	.	.	.	.	.
.	.	.	.	16fJJ	.	.	.	.	.	.	.	.	16fJJ	.	.	.	.	.
.	.	8r	.	8e-L	.	.	.	.	.	.	.	.	8e-L	.	.	.	.	.
.	.	[8E-	.	8dJ	.	.	.	.	.	.	.	.	8dJ	.	.	.	.	.
.	.	8E-L]	.	8e-L	.	.	.	.	.	.	.	.	8e-L	.	.	.	.	.
.	.	8E-J	.	8c	.	.	.	.	.	.	.	.	8c	.	.	.	.	.
.	.	4r	.	8B-	.	.	.	.	.	.	.	.	8B-	.	.	.	.	.
.	.	.	.	8GJ	.	.	.	.	.	.	.	.	8GJ	.	.	.	.	.
=137	=137	=137	=137	=137	=137	=137	=137	=137	=137	=137	=137	=137	=137	=137	=137	=137	=137	=137
1r	.	4AA-	.	8B-L	.	.	8B-L	.	.	1r	.	.	8B-L	.	.	1r	.	.
.	.	.	.	8cJ	.	.	8cJ	.	.	.	.	.	8cJ	.	.	.	.	.
.	.	8r	.	8r	.	.	8r	.	.	.	.	.	8r	.	.	.	.	.
.	.	[8AA-	.	8g	.	.	8g	.	.	.	.	.	8g	.	.	.	.	.
.	.	4AA-]	.	8r	.	.	8r	.	.	.	.	.	8r	.	.	.	.	.
.	.	.	.	8e-L	.	.	8e-L	.	.	.	.	.	8e-L	.	.	.	.	.
.	.	4r	.	8f	.	.	8f	.	.	.	.	.	8f	.	.	.	.	.
.	.	.	.	8gJ	.	.	8gJ	.	.	.	.	.	8gJ	.	.	.	.	.
=138	=138	=138	=138	=138	=138	=138	=138	=138	=138	=138	=138	=138	=138	=138	=138	=138	=138	=138
1r	.	4BBn	.	8fL	.	.	8fL	.	.	1r	.	.	8fL	.	.	1r	.	.
.	.	.	.	16gL	.	.	16gL	.	.	.	.	.	16gL	.	.	.	.	.
.	.	.	.	16fJJ	.	.	16fJJ	.	.	.	.	.	16fJJ	.	.	.	.	.
.	.	8r	.	8e-L	.	.	8e-L	.	.	.	.	.	8e-L	.	.	.	.	.
.	.	[8BB	.	8dJ	.	.	8dJ	.	.	.	.	.	8dJ	.	.	.	.	.
.	.	8BBL]	.	8e-L	.	.	8e-L	.	.	.	.	.	8e-L	.	.	.	.	.
.	.	8BBJ	.	8c	.	.	8c	.	.	.	.	.	8c	.	.	.	.	.
.	.	4r	.	8B-	.	.	8B-	.	.	.	.	.	8B-	.	.	.	.	.
.	.	.	.	8GJ	.	.	8GJ	.	.	.	.	.	8GJ	.	.	.	.	.
=139	=139	=139	=139	=139	=139	=139	=139	=139	=139	=139	=139	=139	=139	=139	=139	=139	=139	=139
1r	.	4C	.	8B-L	.	.	8B-L	.	.	8B-L	.	.	8B-L	.	.	1r	.	.
.	.	.	.	8cJ	.	.	8cJ	.	.	8cJ	.	.	8cJ	.	.	.	.	.
.	.	8r	.	8r	.	.	8r	.	.	8r	.	.	8r	.	.	.	.	.
.	.	[8C	.	8g	.	.	8g	.	.	8g	.	.	8g	.	.	.	.	.
.	.	8CL]	.	8r	.	.	8r	.	.	8r	.	.	8r	.	.	.	.	.
.	.	8CJ	.	8e-L	.	.	8e-L	.	.	8e-L	.	.	8e-L	.	.	.	.	.
.	.	4r	.	8f	.	.	8f	.	.	8f	.	.	8f	.	.	.	.	.
.	.	.	.	8gJ	.	.	8gJ	.	.	8gJ	.	.	8gJ	.	.	.	.	.
=140	=140	=140	=140	=140	=140	=140	=140	=140	=140	=140	=140	=140	=140	=140	=140	=140	=140	=140
1r	.	4E-	.	8fL	.	.	8fL	.	.	8fL	.	.	8fL	.	.	1r	.	.
.	.	.	.	16gL	.	.	16gL	.	.	16gL	.	.	16gL	.	.	.	.	.
.	.	.	.	16fJJ	.	.	16fJJ	.	.	16fJJ	.	.	16fJJ	.	.	.	.	.
.	.	8r	.	8e-L	.	.	8e-L	.	.	8e-L	.	.	8e-L	.	.	.	.	.
.	.	[8E-	.	8dJ	.	.	8dJ	.	.	8dJ	.	.	8dJ	.	.	.	.	.
.	.	8E-L]	.	8e-L	.	.	8e-L	.	.	8e-L	.	.	8e-L	.	.	.	.	.
.	.	8E-J	.	8c	.	.	8c	.	.	8c	.	.	8c	.	.	.	.	.
.	.	4r	.	8B-	.	.	8B-	.	.	8B-	.	.	8B-	.	.	.	.	.
.	.	.	.	8GJ	.	.	8GJ	.	.	8GJ	.	.	8GJ	.	.	.	.	.
=141	=141	=141	=141	=141	=141	=141	=141	=141	=141	=141	=141	=141	=141	=141	=141	=141	=141	=141
1r	.	4AA-	.	8r	.	.	8B-L	.	.	8B-L	.	.	1r	.	.	8r	.	.
.	.	.	.	8cL	カ	.	8cJ	.	.	8cJ	.	.	.	.	.	8cL	カ	.
.	.	8r	.	8c	サ	.	8r	.	.	8r	.	.	.	.	.	8c	サ	.
.	.	[8AA-	.	8cJ	ブ	.	8g	.	.	8g	.	.	.	.	.	8cJ	ブ	.
.	.	8AA-L]	.	8cL	タ	.	8r	.	.	8r	.	.	.	.	.	8cL	タ	.
.	.	8AA-J	.	8c	だ	.	8e-L	.	.	8e-L	.	.	.	.	.	8c	だ	.
.	.	4r	.	8c	ら	.	8f	.	.	8f	.	.	.	.	.	8c	ら	.
.	.	.	.	8e-J	け	.	8gJ	.	.	8gJ	.	.	.	.	.	8e-J	け	.
=142	=142	=142	=142	=142	=142	=142	=142	=142	=142	=142	=142	=142	=142	=142	=142	=142	=142	=142
1r	.	4BB-	.	8dL	あ	.	8fL	.	.	8fL	.	.	8fL	.	.	8dL	あ	.
.	.	.	.	8d	ら	.	16gL	.	.	16gL	.	.	8f	.	.	8d	ら	.
.	.	.	.	.	.	.	16fJJ	.	.	16fJJ	.	.	.	.	.	.	.	.
.	.	8r	.	8d	く	.	8e-L	.	.	8e-L	.	.	8f	.	.	8d	く	.
.	.	[8BB-	.	8e-J	れ	.	8dJ	.	.	8dJ	.	.	8gJ	.	.	8e-J	れ	.
.	.	8BB-L]	.	8dL	た	.	8e-L	.	.	8e-L	.	.	8fL	.	.	8dL	た	.
.	.	8BB-J	.	8c	日	.	8c	.	.	8c	.	.	8e-	.	.	8c	日	.
.	.	4r	.	8B-	々	.	8B-	.	.	8B-	.	.	8c	.	.	8B-	々	.
.	.	.	.	8GJ	が	.	8GJ	.	.	8GJ	.	.	8B-J	.	.	8GJ	が	.
=143	=143	=143	=143	=143	=143	=143	=143	=143	=143	=143	=143	=143	=143	=143	=143	=143	=143	=143
1r	.	4C	.	8r	.	.	8B-L	.	.	8B-L	.	.	1r	.	.	8r	.	.
.	.	.	.	8cL	け	.	8cJ	.	.	8cJ	.	.	.	.	.	8cL	け	.
.	.	8r	.	8c	ず	.	8r	.	.	8r	.	.	.	.	.	8c	ず	.
.	.	[8C	.	8cJ	り	.	8g	.	.	8g	.	.	.	.	.	8cJ	り	.
.	.	8CL]	.	8cL	け	.	8r	.	.	8r	.	.	.	.	.	8cL	け	.
.	.	8CJ	.	8c	ず	.	8e-L	.	.	8e-L	.	.	.	.	.	8c	ず	.
.	.	4r	.	8c	ら	.	8f	.	.	8f	.	.	.	.	.	8c	ら	.
.	.	.	.	8gJ	れ	.	8gJ	.	.	8gJ	.	.	.	.	.	8gJ	れ	.
=144	=144	=144	=144	=144	=144	=144	=144	=144	=144	=144	=144	=144	=144	=144	=144	=144	=144	=144
1r	.	4E-	.	8fL	擦	.	8fL	.	.	8fL	.	.	8a-L	.	.	8fL	擦	.
.	.	.	.	8f	り	.	16gL	.	.	16gL	.	.	8a-	.	.	8f	り	.
.	.	.	.	.	.	.	16fJJ	.	.	16fJJ	.	.	.	.	.	.	.	.
.	.	8r	.	8f	切	.	8e-L	.	.	8e-L	.	.	8a-	.	.	8f	切	.
.	.	[8E-	.	8gJ	れ	.	8dJ	.	.	8dJ	.	.	8b-J	.	.	8gJ	れ	.
.	.	8E-L]	.	8fL	た	.	8e-L	.	.	8e-L	.	.	8a-L	.	.	8fL	た	.
.	.	8E-J	.	8e-	い	.	8c	.	.	8c	.	.	8g	.	.	8e-	い	.
.	.	4r	.	8c	ま	.	8B-	.	.	8B-	.	.	8e-	.	.	8c	ま	.
.	.	.	.	8B-J	が	.	8GJ	.	.	8GJ	.	.	8e-J	.	.	8B-J	が	.
=145	=145	=145	=145	=145	=145	=145	=145	=145	=145	=145	=145	=145	=145	=145	=145	=145	=145	=145
1r	.	4AA-	.	8r	.	.	8B-L	.	.	8B-L	.	.	1r	.	.	8r	.	.
.	.	.	.	8cL	き	.	8cJ	.	.	8cJ	.	.	.	.	.	8cL	き	.
.	.	8r	.	8c	み	.	8r	.	.	8r	.	.	.	.	.	8c	み	.
.	.	[8AA-	.	8cJ	の	.	8g	.	.	8g	.	.	.	.	.	8cJ	の	.
.	.	4AA-]	.	8cL	こ	.	8r	.	.	8r	.	.	.	.	.	8cL	こ	.
.	.	.	.	8c	と	.	8e-L	.	.	8e-L	.	.	.	.	.	8c	と	.
.	.	4r	.	8c	ば	.	8f	.	.	8f	.	.	.	.	.	8c	ば	.
.	.	.	.	8e-J	で	.	8gJ	.	.	8gJ	.	.	.	.	.	8e-J	で	.
=146	=146	=146	=146	=146	=146	=146	=146	=146	=146	=146	=146	=146	=146	=146	=146	=146	=146	=146
1r	.	4BBn	.	8dL	よ	.	8fL	.	.	8fL	.	.	2r	.	.	8dL	よ	.
.	.	.	.	8e-	み	.	16gL	.	.	16gL	.	.	.	.	.	8e-	み	.
.	.	.	.	.	.	.	16fJJ	.	.	16fJJ	.	.	.	.	.	.	.	.
.	.	8r	.	8d	が	.	8e-L	.	.	8e-L	.	.	.	.	.	8d	が	.
.	.	[8BB	.	8cJ	え	.	8dJ	.	.	8dJ	.	.	.	.	.	8cJ	え	.
.	.	8BBL]	.	4B-	る	.	8e-L	.	.	8e-L	.	.	4r	.	.	4B-	る	.
.	.	8BBJ	.	.	.	.	8c	.	.	8c	.	.	.	.	.	.	.	.
.	.	4r	.	8B-L	あ	.	8B-	.	.	8B-	.	.	8dL	.	.	8B-L	あ	.
.	.	.	.	[8B-J	ざ	.	8GJ	.	.	8GJ	.	.	[8dJ	.	.	[8B-J	ざ	.
=147	=147	=147	=147	=147	=147	=147	=147	=147	=147	=147	=147	=147	=147	=147	=147	=147	=147	=147
1r	.	4C	.	8B-L]	ー	.	8B-L	.	.	8B-L	.	.	8dL]	.	.	8B-L]	ー	.
.	.	.	.	8c	や	.	8cJ	.	.	8cJ	.	.	8e-	.	.	8c	や	.
.	.	8r	.	8B-	か	.	8r	.	.	8r	.	.	8d	.	.	8B-	か	.
.	.	[8C	.	8A-J	に	.	8g	.	.	8g	.	.	8cJ	.	.	8A-J	に	.
.	.	8CL]	.	4G	も	.	8r	.	.	8r	.	.	4B-	.	.	4G	も	.
.	.	8CJ	.	.	.	.	8e-L	.	.	8e-L	.	.	.	.	.	.	.	.
.	.	4r	.	8GL	.	あ	8f	.	.	8f	.	.	8B-L	.	.	8GL	.	あ
.	.	.	.	[8GJ	.	ら	8gJ	.	.	8gJ	.	.	[8B-J	.	.	[8GJ	.	ら
=148	=148	=148	=148	=148	=148	=148	=148	=148	=148	=148	=148	=148	=148	=148	=148	=148	=148	=148
1r	.	4E-	.	8GL]	.	.	8fL	.	.	8fL	.	.	8B-L]	.	.	8GL]	.	.
.	.	.	.	8A-	.	わ	16gL	.	.	16gL	.	.	8c	.	.	8A-	.	わ
.	.	.	.	.	.	.	16fJJ	.	.	16fJJ	.	.	.	.	.	.	.	.
.	.	8r	.	8G	.	れ	8e-L	.	.	8e-L	.	.	8B-	.	.	8G	.	れ
.	.	[8E-	.	8FJ	.	て	8dJ	.	.	8dJ	.	.	8A-J	.	.	8FJ	.	て
.	.	8E-L]	.	2E-	.	いく	8e-L	.	.	8e-L	.	.	2G	.	.	2E-	.	いく
.	.	8E-J	.	.	.	.	8c	.	.	8c	.	.	.	.	.	.	.	.
.	.	4r	.	.	.	.	8B-	.	.	8B-	.	.	.	.	.	.	.	.
.	.	.	.	.	.	.	8GJ	.	.	8GJ	.	.	.	.	.	.	.	.
=149	=149	=149	=149	=149	=149	=149	=149	=149	=149	=149	=149	=149	=149	=149	=149	=149	=149	=149
1r	.	4AA-	.	1g	.	.	8B-L	.	.	8B-L	.	.	8r	.	.	8r	.	.
.	.	.	.	.	.	.	8cJ	.	.	8cJ	.	.	8cL	さ	.	8cL	さ	.
.	.	8r	.	.	.	.	8r	.	.	8r	.	.	8c	な	.	8c	な	.
.	.	[8AA-	.	.	.	.	8g	.	.	8g	.	.	8cJ	ぎ	.	8cJ	ぎ	.
.	.	8AA-L]	.	.	.	.	8r	.	.	8r	.	.	8cL	の	.	8cL	の	.
.	.	8AA-J	.	.	.	.	8e-L	.	.	8e-L	.	.	8c	ま	.	8c	ま	.
.	.	4r	.	.	.	.	8f	.	.	8f	.	.	8c	ま	.	8c	ま	.
.	.	.	.	.	.	.	8gJ	.	.	8gJ	.	.	8e-J	で	.	8e-J	で	.
=150	=150	=150	=150	=150	=150	=150	=150	=150	=150	=150	=150	=150	=150	=150	=150	=150	=150	=150
1r	.	4BB-	.	1f	.	.	8fL	.	.	8fL	.	.	8dL	ね	.	8dL	ね	.
.	.	.	.	.	.	.	16gL	.	.	16gL	.	.	8d	む	.	8d	む	.
.	.	.	.	.	.	.	16fJJ	.	.	16fJJ	.	.	.	.	.	.	.	.
.	.	8r	.	.	.	.	8e-L	.	.	8e-L	.	.	8d	る	.	8d	る	.
.	.	[8BB-	.	.	.	.	8dJ	.	.	8dJ	.	.	8e-J	た	.	8e-J	た	.
.	.	8BB-L]	.	.	.	.	8e-L	.	.	8e-L	.	.	8dL	ま	.	8dL	ま	.
.	.	8BB-J	.	.	.	.	8c	.	.	8c	.	.	8c	し	.	8c	し	.
.	.	4r	.	.	.	.	8B-	.	.	8B-	.	.	8B-	い	.	8B-	い	.
.	.	.	.	.	.	.	8GJ	.	.	8GJ	.	.	8GJ	を	.	8GJ	を	.
=151	=151	=151	=151	=151	=151	=151	=151	=151	=151	=151	=151	=151	=151	=151	=151	=151	=151	=151
1r	.	4C	.	2e-	.	.	8B-L	.	.	8B-L	.	.	8r	.	.	8r	.	.
.	.	.	.	.	.	.	8cJ	.	.	8cJ	.	.	8cL	食	.	8cL	食	.
.	.	8r	.	.	.	.	8r	.	.	8r	.	.	8c	べ	.	8c	べ	.
.	.	[8C	.	.	.	.	8g	.	.	8g	.	.	8cJ	か	.	8cJ	か	.
.	.	8CL]	.	2r	.	.	8r	.	.	8r	.	.	8cL	け	.	8cL	け	.
.	.	8CJ	.	.	.	.	8e-L	.	.	8e-L	.	.	8c	の	.	8c	の	.
.	.	4r	.	.	.	.	8f	.	.	8f	.	.	8c	ま	.	8c	ま	.
.	.	.	.	.	.	.	8gJ	.	.	8gJ	.	.	8gJ	ま	.	8gJ	ま	.
=152	=152	=152	=152	=152	=152	=152	=152	=152	=152	=152	=152	=152	=152	=152	=152	=152	=152	=152
1r	.	4E-	.	1r	.	.	8fL	.	.	8fL	.	.	8fL	捨	.	8fL	捨	.
.	.	.	.	.	.	.	16gL	.	.	16gL	.	.	8f	て	.	8f	て	.
.	.	.	.	.	.	.	16fJJ	.	.	16fJJ	.	.	.	.	.	.	.	.
.	.	8r	.	.	.	.	8e-L	.	.	8e-L	.	.	8f	た	.	8f	た	.
.	.	[8E-	.	.	.	.	8dJ	.	.	8dJ	.	.	8gJ	あ	.	8gJ	あ	.
.	.	8E-L]	.	.	.	.	8e-L	.	.	8e-L	.	.	8a-L	の	.	8a-L	の	.
.	.	8E-J	.	.	.	.	8c	.	.	8c	.	.	8g	ゆ	.	8g	ゆ	.
.	.	4r	.	.	.	.	8B-	.	.	8B-	.	.	8f	め	.	8f	め	.
.	.	.	.	.	.	.	8GJ	.	.	8GJ	.	.	8e-J	を	.	8e-J	を	.
=153	=153	=153	=153	=153	=153	=153	=153	=153	=153	=153	=153	=153	=153	=153	=153	=153	=153	=153
1r	.	4AA-	.	1g	.	.	8B-L	.	.	8B-L	.	.	8r	.	.	8r	.	.
.	.	.	.	.	.	.	8cJ	.	.	8cJ	.	.	4c	もう	.	4c	もう	.
.	.	8r	.	.	.	.	8r	.	.	8r	.	.	.	.	.	.	.	.
.	.	[8AA-	.	.	.	.	8g	.	.	8g	.	.	8c	い	.	8c	い	.
.	.	4AA-]	.	.	.	.	8r	.	.	8r	.	.	8cL	ち	.	8cL	ち	.
.	.	.	.	.	.	.	8e-L	.	.	8e-L	.	.	8c	ど	.	8c	ど	.
.	.	4r	.	.	.	.	8f	.	.	8f	.	.	8c	取	.	8c	取	.
.	.	.	.	.	.	.	8gJ	.	.	8gJ	.	.	8gJ	り	.	8gJ	り	.
=154	=154	=154	=154	=154	=154	=154	=154	=154	=154	=154	=154	=154	=154	=154	=154	=154	=154	=154
1r	.	4BBn	.	1Bn	.	.	8fL	.	.	8fL	.	.	4.f	も	.	4.f	も	.
.	.	.	.	.	.	.	16gL	.	.	16gL	.	.	.	.	.	.	.	.
.	.	.	.	.	.	.	16fJJ	.	.	16fJJ	.	.	.	.	.	.	.	.
.	.	8r	.	.	.	.	8e-L	.	.	8e-L	.	.	.	.	.	.	.	.
.	.	[8BB	.	.	.	.	8dJ	.	.	8dJ	.	.	16gLL	ど	.	16gLL	ど	.
.	.	.	.	.	.	.	.	.	.	.	.	.	16fJJ	.	.	16fJJ	.	.
.	.	8BBL]	.	.	.	.	8e-L	.	.	8e-L	.	.	2e-	ー	.	2e-	ー	.
.	.	8BBJ	.	.	.	.	8c	.	.	8c	.	.	.	.	.	.	.	.
.	.	4r	.	.	.	.	8B-	.	.	8B-	.	.	.	.	.	.	.	.
.	.	.	.	.	.	.	8GJ	.	.	8GJ	.	.	.	.	.	.	.	.
=155	=155	=155	=155	=155	=155	=155	=155	=155	=155	=155	=155	=155	=155	=155	=155	=155	=155	=155
1r	.	4C	.	1c	.	.	8B-L	.	.	8B-L	.	.	1e-	せ	.	1e-	せ	.
.	.	.	.	.	.	.	8cJ	.	.	8cJ	.	.	.	.	.	.	.	.
.	.	8r	.	.	.	.	8r	.	.	8r	.	.	.	.	.	.	.	.
.	.	[8C	.	.	.	.	8g	.	.	8g	.	.	.	.	.	.	.	.
.	.	8CL]	.	.	.	.	8r	.	.	8r	.	.	.	.	.	.	.	.
.	.	8CJ	.	.	.	.	8e-L	.	.	8e-L	.	.	.	.	.	.	.	.
.	.	4r	.	.	.	.	8f	.	.	8f	.	.	.	.	.	.	.	.
.	.	.	.	.	.	.	8gJ	.	.	8gJ	.	.	.	.	.	.	.	.
=156	=156	=156	=156	=156	=156	=156	=156	=156	=156	=156	=156	=156	=156	=156	=156	=156	=156	=156
1r	.	4E-	.	1r	.	.	8fL	.	.	8fL	.	.	1r	.	.	1r	.	.
.	.	.	.	.	.	.	16gL	.	.	16gL	.	.	.	.	.	.	.	.
.	.	.	.	.	.	.	16fJJ	.	.	16fJJ	.	.	.	.	.	.	.	.
.	.	8r	.	.	.	.	8e-L	.	.	8e-L	.	.	.	.	.	.	.	.
.	.	[8E-	.	.	.	.	8dJ	.	.	8dJ	.	.	.	.	.	.	.	.
.	.	8E-L]	.	.	.	.	8e-L	.	.	8e-L	.	.	.	.	.	.	.	.
.	.	8BB-J	.	.	.	.	8c	.	.	8c	.	.	.	.	.	.	.	.
.	.	4F	.	.	.	.	8B-	.	.	8B-	.	.	.	.	.	.	.	.
.	.	.	.	.	.	.	8GJ	.	.	8GJ	.	.	.	.	.	.	.	.
=157	=157	=157	=157	=157	=157	=157	=157	=157	=157	=157	=157	=157	=157	=157	=157	=157	=157	=157
1r	.	8AA-L	.	8cL	.	.	8e-L	.	.	2c	Oh-	.	2c	.	.	1r	.	.
.	.	8AA-J	.	8cJ	.	.	8e-J	.	.	.	.	.	.	.	.	.	.	.
.	.	8r	.	8r	.	.	8r	.	.	.	.	.	.	.	.	.	.	.
.	.	8AA-	.	8c	.	.	8e-	.	.	.	.	.	.	.	.	.	.	.
.	.	8r	.	8r	.	.	8r	.	.	4g	.	.	4c	.	.	.	.	.
.	.	8AA-	.	8c	.	.	8e-	.	.	.	.	.	.	.	.	.	.	.
.	.	8r	.	8r	.	.	8r	.	.	4r	.	.	4r	.	.	.	.	.
.	.	8AA-	.	8c	.	.	8e-	.	.	.	.	.	.	.	.	.	.	.
=158	=158	=158	=158	=158	=158	=158	=158	=158	=158	=158	=158	=158	=158	=158	=158	=158	=158	=158
1r	.	8AA-L	.	8cL	.	.	8e-L	.	.	4f	.	.	4d	.	.	1r	.	.
.	.	8AA-J	.	8cJ	.	.	8e-J	.	.	.	.	.	.	.	.	.	.	.
.	.	8r	.	8r	.	.	8r	.	.	4d	.	.	4B-	.	.	.	.	.
.	.	8AA-	.	8c	.	.	8e-	.	.	.	.	.	.	.	.	.	.	.
.	.	8r	.	8r	.	.	8r	.	.	2d	.	.	2B-	.	.	.	.	.
.	.	8AA-	.	8c	.	.	8e-	.	.	.	.	.	.	.	.	.	.	.
.	.	8r	.	8r	.	.	8r	.	.	.	.	.	.	.	.	.	.	.
.	.	8AA-	.	8c	.	.	8e-	.	.	.	.	.	.	.	.	.	.	.
=159	=159	=159	=159	=159	=159	=159	=159	=159	=159	=159	=159	=159	=159	=159	=159	=159	=159	=159
1r	.	8BB-L	.	8dL	.	.	8fL	.	.	4e-	.	.	4c	.	.	1r	.	.
.	.	8BB-J	.	8dJ	.	.	8fJ	.	.	.	.	.	.	.	.	.	.	.
.	.	8r	.	8r	.	.	8r	.	.	4r	.	.	4r	.	.	.	.	.
.	.	8BB-	.	8d	.	.	8f	.	.	.	.	.	.	.	.	.	.	.
.	.	8r	.	8r	.	.	8r	.	.	4g	.	.	4e-	.	.	.	.	.
.	.	8BB-	.	8d	.	.	8f	.	.	.	.	.	.	.	.	.	.	.
.	.	8r	.	8r	.	.	8r	.	.	4r	.	.	4r	.	.	.	.	.
.	.	8BB-	.	8d	.	.	8f	.	.	.	.	.	.	.	.	.	.	.
=160	=160	=160	=160	=160	=160	=160	=160	=160	=160	=160	=160	=160	=160	=160	=160	=160	=160	=160
1r	.	8BBnL	.	8BnL	.	.	8dL	.	.	4f	.	.	4d	.	.	1r	.	.
.	.	8BBJ	.	8BJ	.	.	8dJ	.	.	.	.	.	.	.	.	.	.	.
.	.	8r	.	8r	.	.	8r	.	.	4d	.	.	4B-	.	.	.	.	.
.	.	8BB	.	8B	.	.	8d	.	.	.	.	.	.	.	.	.	.	.
.	.	8r	.	8r	.	.	8r	.	.	2d	.	.	2B-	.	.	.	.	.
.	.	8BB	.	8B	.	.	8d	.	.	.	.	.	.	.	.	.	.	.
.	.	8r	.	8r	.	.	8r	.	.	.	.	.	.	.	.	.	.	.
.	.	8BB	.	8B	.	.	8d	.	.	.	.	.	.	.	.	.	.	.
=161	=161	=161	=161	=161	=161	=161	=161	=161	=161	=161	=161	=161	=161	=161	=161	=161	=161	=161
1r	.	8CL	.	8cL	.	.	8e-L	.	.	4e-	.	.	4c	.	.	1r	.	.
.	.	8CJ	.	8cJ	.	.	8e-J	.	.	.	.	.	.	.	.	.	.	.
.	.	8r	.	8r	.	.	8r	.	.	4r	.	.	4r	.	.	.	.	.
.	.	8C	.	8c	.	.	8e-	.	.	.	.	.	.	.	.	.	.	.
.	.	8r	.	8r	.	.	8r	.	.	4g	.	.	4e-	.	.	.	.	.
.	.	8C	.	8c	.	.	8e-	.	.	.	.	.	.	.	.	.	.	.
.	.	8r	.	8r	.	.	8r	.	.	4r	.	.	4r	.	.	.	.	.
.	.	8C	.	8c	.	.	8e-	.	.	.	.	.	.	.	.	.	.	.
=162	=162	=162	=162	=162	=162	=162	=162	=162	=162	=162	=162	=162	=162	=162	=162	=162	=162	=162
1r	.	8CL	.	8cL	.	.	8e-L	.	.	4f	.	.	4d	.	.	1r	.	.
.	.	8CJ	.	8cJ	.	.	8e-J	.	.	.	.	.	.	.	.	.	.	.
.	.	8r	.	8r	.	.	8r	.	.	4d	.	.	4A-	.	.	.	.	.
.	.	8C	.	8c	.	.	8e-	.	.	.	.	.	.	.	.	.	.	.
.	.	8r	.	8r	.	.	8r	.	.	2d	.	.	2A-	.	.	.	.	.
.	.	8C	.	8c	.	.	8e-	.	.	.	.	.	.	.	.	.	.	.
.	.	8r	.	8r	.	.	8r	.	.	.	.	.	.	.	.	.	.	.
.	.	8C	.	8c	.	.	8e-	.	.	.	.	.	.	.	.	.	.	.
=163	=163	=163	=163	=163	=163	=163	=163	=163	=163	=163	=163	=163	=163	=163	=163	=163	=163	=163
1r	.	8E-L	.	8fL	.	.	8a-L	.	.	1e-	.	.	1G	.	.	1r	.	.
.	.	8E-J	.	8fJ	.	.	8a-J	.	.	.	.	.	.	.	.	.	.	.
.	.	8r	.	8r	.	.	8r	.	.	.	.	.	.	.	.	.	.	.
.	.	8E-	.	8f	.	.	8a-	.	.	.	.	.	.	.	.	.	.	.
.	.	8r	.	8r	.	.	8r	.	.	.	.	.	.	.	.	.	.	.
.	.	8E-	.	8f	.	.	8a-	.	.	.	.	.	.	.	.	.	.	.
.	.	8r	.	8r	.	.	8r	.	.	.	.	.	.	.	.	.	.	.
.	.	8E-	.	8f	.	.	8a-	.	.	.	.	.	.	.	.	.	.	.
=164	=164	=164	=164	=164	=164	=164	=164	=164	=164	=164	=164	=164	=164	=164	=164	=164	=164	=164
1r	.	8E-L	.	8gL	.	.	8b-L	.	.	1r	.	.	1r	.	.	1r	.	.
.	.	8E-J	.	8gJ	.	.	8b-J	.	.	.	.	.	.	.	.	.	.	.
.	.	8r	.	8r	.	.	8r	.	.	.	.	.	.	.	.	.	.	.
.	.	8E-	.	8g	.	.	8b-	.	.	.	.	.	.	.	.	.	.	.
.	.	8r	.	8r	.	.	8r	.	.	.	.	.	.	.	.	.	.	.
.	.	8E-	.	8g	.	.	8b-	.	.	.	.	.	.	.	.	.	.	.
.	.	8r	.	8r	.	.	8r	.	.	.	.	.	.	.	.	.	.	.
.	.	8E-	.	8g	.	.	8b-	.	.	.	.	.	.	.	.	.	.	.
=165	=165	=165	=165	=165	=165	=165	=165	=165	=165	=165	=165	=165	=165	=165	=165	=165	=165	=165
1r	.	8A-L	.	8cL	.	.	8e-L	.	.	2c	.	.	2c	.	.	1r	.	.
.	.	8A-J	.	8cJ	.	.	8e-J	.	.	.	.	.	.	.	.	.	.	.
.	.	8r	.	8r	.	.	8r	.	.	.	.	.	.	.	.	.	.	.
.	.	8A-	.	8c	.	.	8e-	.	.	.	.	.	.	.	.	.	.	.
.	.	8r	.	8r	.	.	8r	.	.	4g	.	.	4c	.	.	.	.	.
.	.	8A-	.	8c	.	.	8e-	.	.	.	.	.	.	.	.	.	.	.
.	.	8r	.	8r	.	.	8r	.	.	4r	.	.	4r	.	.	.	.	.
.	.	8A-	.	8c	.	.	8e-	.	.	.	.	.	.	.	.	.	.	.
=166	=166	=166	=166	=166	=166	=166	=166	=166	=166	=166	=166	=166	=166	=166	=166	=166	=166	=166
1r	.	8A-L	.	8cL	.	.	8e-L	.	.	4f	.	.	4d	.	.	1r	.	.
.	.	8A-J	.	8cJ	.	.	8e-J	.	.	.	.	.	.	.	.	.	.	.
.	.	8r	.	8r	.	.	8r	.	.	4d	.	.	4B-	.	.	.	.	.
.	.	8A-	.	8c	.	.	8e-	.	.	.	.	.	.	.	.	.	.	.
.	.	8r	.	8r	.	.	8r	.	.	2d	.	.	2B-	.	.	.	.	.
.	.	8A-	.	8c	.	.	8e-	.	.	.	.	.	.	.	.	.	.	.
.	.	8r	.	8r	.	.	8r	.	.	.	.	.	.	.	.	.	.	.
.	.	8A-	.	8c	.	.	8e-	.	.	.	.	.	.	.	.	.	.	.
=167	=167	=167	=167	=167	=167	=167	=167	=167	=167	=167	=167	=167	=167	=167	=167	=167	=167	=167
1r	.	8B-L	.	8dL	.	.	8fL	.	.	4e-	.	.	4c	.	.	1r	.	.
.	.	8B-J	.	8dJ	.	.	8fJ	.	.	.	.	.	.	.	.	.	.	.
.	.	8r	.	8r	.	.	8r	.	.	4r	.	.	4r	.	.	.	.	.
.	.	8B-	.	8d	.	.	8f	.	.	.	.	.	.	.	.	.	.	.
.	.	8r	.	8r	.	.	8r	.	.	4g	.	.	4e-	.	.	.	.	.
.	.	8B-	.	8d	.	.	8f	.	.	.	.	.	.	.	.	.	.	.
.	.	8r	.	8r	.	.	8r	.	.	4r	.	.	4r	.	.	.	.	.
.	.	8B-	.	8d	.	.	8f	.	.	.	.	.	.	.	.	.	.	.
=168	=168	=168	=168	=168	=168	=168	=168	=168	=168	=168	=168	=168	=168	=168	=168	=168	=168	=168
1r	.	8BnL	.	8BnL	.	.	8dL	.	.	2a-	.	.	2f	.	.	1r	.	.
.	.	8BJ	.	8BJ	.	.	8dJ	.	.	.	.	.	.	.	.	.	.	.
.	.	8r	.	8r	.	.	8r	.	.	.	.	.	.	.	.	.	.	.
.	.	8B	.	8B	.	.	8d	.	.	.	.	.	.	.	.	.	.	.
.	.	8r	.	8r	.	.	8r	.	.	4g	.	.	4e-	.	.	.	.	.
.	.	8B	.	8B	.	.	8d	.	.	.	.	.	.	.	.	.	.	.
.	.	8r	.	8r	.	.	8r	.	.	4e-	.	.	4c	.	.	.	.	.
.	.	8B	.	8B	.	.	8d	.	.	.	.	.	.	.	.	.	.	.
=169	=169	=169	=169	=169	=169	=169	=169	=169	=169	=169	=169	=169	=169	=169	=169	=169	=169	=169
1r	.	8cL	.	8cL	.	.	8e-L	.	.	4e-	.	.	4c	.	.	1r	.	.
.	.	8cJ	.	8cJ	.	.	8e-J	.	.	.	.	.	.	.	.	.	.	.
.	.	8r	.	8r	.	.	8r	.	.	4r	.	.	4r	.	.	.	.	.
.	.	8c	.	8c	.	.	8e-	.	.	.	.	.	.	.	.	.	.	.
.	.	8r	.	8r	.	.	8r	.	.	4g	.	.	4e-	.	.	.	.	.
.	.	8c	.	8c	.	.	8e-	.	.	.	.	.	.	.	.	.	.	.
.	.	8r	.	8r	.	.	8r	.	.	4r	.	.	4r	.	.	.	.	.
.	.	8c	.	8c	.	.	8e-	.	.	.	.	.	.	.	.	.	.	.
=170	=170	=170	=170	=170	=170	=170	=170	=170	=170	=170	=170	=170	=170	=170	=170	=170	=170	=170
1r	.	8cL	.	8cL	.	.	8e-L	.	.	2a-	.	.	2f	.	.	1r	.	.
.	.	8cJ	.	8cJ	.	.	8e-J	.	.	.	.	.	.	.	.	.	.	.
.	.	8r	.	8r	.	.	8r	.	.	.	.	.	.	.	.	.	.	.
.	.	8c	.	8c	.	.	8e-	.	.	.	.	.	.	.	.	.	.	.
.	.	8r	.	8r	.	.	8r	.	.	4g	.	.	4e-	.	.	.	.	.
.	.	8c	.	8c	.	.	8e-	.	.	.	.	.	.	.	.	.	.	.
.	.	8r	.	8r	.	.	8r	.	.	4e-	.	.	4B-	.	.	.	.	.
.	.	8c	.	8c	.	.	8e-	.	.	.	.	.	.	.	.	.	.	.
=171	=171	=171	=171	=171	=171	=171	=171	=171	=171	=171	=171	=171	=171	=171	=171	=171	=171	=171
1r	.	8E-L	.	8fL	.	.	8a-L	.	.	2e-	Oh	.	2B-	.	.	2r	.	.
.	.	8E-J	.	8fJ	.	.	8a-J	.	.	.	.	.	.	.	.	.	.	.
.	.	8r	.	8r	.	.	8r	.	.	.	.	.	.	.	.	.	.	.
.	.	8E-	.	8f	.	.	8a-	.	.	.	.	.	.	.	.	.	.	.
.	.	8r	.	2r	.	.	2r	.	.	2r	.	.	2g	もう	.	2g	もう	.
.	.	8E-	.	.	.	.	.	.	.	.	.	.	.	.	.	.	.	.
.	.	8r	.	.	.	.	.	.	.	.	.	.	.	.	.	.	.	.
.	.	8E-	.	.	.	.	.	.	.	.	.	.	.	.	.	.	.	.
=172	=172	=172	=172	=172	=172	=172	=172	=172	=172	=172	=172	=172	=172	=172	=172	=172	=172	=172
1r	.	1r	.	1r	.	.	1r	.	.	1r	.	.	4f	い	.	4f	い	.
.	.	.	.	.	.	.	.	.	.	.	.	.	8.e-L	.	.	8.e-L	.	.
.	.	.	.	.	.	.	.	.	.	.	.	.	16e-Jk	ち	.	16e-Jk	ち	.
.	.	.	.	.	.	.	.	.	.	.	.	.	4e-	ど	.	4e-	ど	.
.	.	.	.	.	.	.	.	.	.	.	.	.	4r	.	.	4r	.	.
=173	=173	=173	=173	=173	=173	=173	=173	=173	=173	=173	=173	=173	=173	=173	=173	=173	=173	=173
1r	.	4AA-	.	4e-	.	.	4a-	.	.	4e-	.	.	4c	遠	.	4c	遠	.
.	.	8AA-L	.	8e-L	.	.	8a-L	.	.	8b-L	.	.	8gL	く	.	8gL	く	.
.	.	[8AA-J	.	[8e-J	.	.	[8a-J	.	.	[8a-J	.	.	[8fJ	へ	.	[8fJ	へ	.
.	.	8AA-L]	.	8e-L]	.	.	8a-L]	.	.	8a-]	.	.	8f]	行	.	8f]	行	.
.	.	8AA-	.	8e-	.	.	8a-	.	.	4g	.	.	4e-	け	.	4e-	け	.
.	.	8AA-	.	8e-	.	.	8a-	.	.	.	.	.	.	.	.	.	.	.
.	.	8AA-J	.	8e-J	.	.	8a-J	.	.	[8f	.	.	[8d	遠	.	[8d	遠	.
=174	=174	=174	=174	=174	=174	=174	=174	=174	=174	=174	=174	=174	=174	=174	=174	=174	=174	=174
1r	.	4BB-	.	4f	.	.	4b-	.	.	8fL]	.	.	8dL]	.	.	8dL]	.	.
.	.	.	.	.	.	.	.	.	.	8g	.	.	8e-	く	.	8e-	く	.
.	.	8BB-L	.	8fL	.	.	8b-L	.	.	8f	.	.	8d	へ	.	8d	へ	.
.	.	[8BB-J	.	[8fJ	.	.	[8b-J	.	.	8e-J	.	.	8cJ	行	.	8cJ	行	.
.	.	8BB-L]	.	8fL]	.	.	8b-L]	.	.	8e-L	.	.	8cL	け	.	8cL	け	.
.	.	8BB-	.	8f	.	.	8b-	.	.	8dJ	.	.	8B-J	と	.	8B-J	と	.
.	.	8BB-	.	8f	.	.	8b-	.	.	4r	.	.	8r	.	.	8r	.	.
.	.	8BB-J	.	8fJ	.	.	8b-J	.	.	.	.	.	[8e-	ぼ	.	[8e-	ぼ	.
=175	=175	=175	=175	=175	=175	=175	=175	=175	=175	=175	=175	=175	=175	=175	=175	=175	=175	=175
1r	.	4C	.	4g	.	.	4cc	.	.	1r	.	.	8e-L]	.	.	8e-L]	.	.
.	.	.	.	.	.	.	.	.	.	.	.	.	8d	く	.	8d	く	.
.	.	8CL	.	8gL	.	.	8ccL	.	.	.	.	.	8B-	の	.	8B-	の	.
.	.	[8CJ	.	[8gJ	.	.	[8ccJ	.	.	.	.	.	[8cJ	な	.	[8cJ	な	.
.	.	8CL]	.	8gL]	.	.	8ccL]	.	.	.	.	.	8cL]	.	.	8cL]	.	.
.	.	8C	.	8g	.	.	8cc	.	.	.	.	.	8B-	か	.	8B-	か	.
.	.	8C	.	8g	.	.	8cc	.	.	.	.	.	8A-	で	.	8A-	で	.
.	.	8CJ	.	8gJ	.	.	8ccJ	.	.	.	.	.	8GJ	だ	.	8GJ	だ	.
=176	=176	=176	=176	=176	=176	=176	=176	=176	=176	=176	=176	=176	=176	=176	=176	=176	=176	=176
1r	.	4E-	.	4b-	.	.	4ee-	.	.	1r	.	.	8GL	れ	.	8GL	れ	.
.	.	.	.	.	.	.	.	.	.	.	.	.	8A-	か	.	8A-	か	.
.	.	8E-L	.	8b-L	.	.	8ee-L	.	.	.	.	.	8B-	が	.	8B-	が	.
.	.	[8E-J	.	[8b-J	.	.	[8ee-J	.	.	.	.	.	8fJ	う	.	8fJ	う	.
.	.	8E-L]	.	8b-L]	.	.	8ee-L]	.	.	.	.	.	8fL	た	.	8fL	た	.
.	.	8E-	.	8b-	.	.	8ee-	.	.	.	.	.	8e-J	う	.	8e-J	う	.
.	.	8E-	.	8b-	.	.	8ee-	.	.	.	.	.	4r	.	.	4r	.	.
.	.	8E-J	.	8b-J	.	.	8ee-J	.	.	.	.	.	.	.	.	.	.	.
=177	=177	=177	=177	=177	=177	=177	=177	=177	=177	=177	=177	=177	=177	=177	=177	=177	=177	=177
1r	.	4AA-	.	1e-	.	.	1a-	.	.	1cc	.	.	4c	どう	.	4c	どう	.
.	.	8AA-L	.	.	.	.	.	.	.	.	.	.	8gL	し	.	8gL	し	.
.	.	[8AA-J	.	.	.	.	.	.	.	.	.	.	[8fJ	よう	.	[8fJ	よう	.
.	.	8AA-L]	.	.	.	.	.	.	.	.	.	.	8f]	.	.	8f]	.	.
.	.	8AA-	.	.	.	.	.	.	.	.	.	.	4e-	も	.	4e-	も	.
.	.	8AA-	.	.	.	.	.	.	.	.	.	.	.	.	.	.	.	.
.	.	8AA-J	.	.	.	.	.	.	.	.	.	.	[8a-	ない	.	[8a-	ない	.
=178	=178	=178	=178	=178	=178	=178	=178	=178	=178	=178	=178	=178	=178	=178	=178	=178	=178	=178
1r	.	4BBn	.	1f	.	.	1bn	.	.	1dd	.	.	8a-L]	.	.	8a-L]	.	.
.	.	.	.	.	.	.	.	.	.	.	.	.	8g	ほ	.	8g	ほ	.
.	.	8BBL	.	.	.	.	.	.	.	.	.	.	8f	ど	.	8f	ど	.
.	.	[8BBJ	.	.	.	.	.	.	.	.	.	.	8e-J	ね	.	8e-J	ね	.
.	.	8BBL]	.	.	.	.	.	.	.	.	.	.	8dL	つ	.	8dL	つ	.
.	.	8BB	.	.	.	.	.	.	.	.	.	.	8e-	れ	.	8e-	れ	.
.	.	8BB	.	.	.	.	.	.	.	.	.	.	8f	つ	.	8f	つ	.
.	.	8BBJ	.	.	.	.	.	.	.	.	.	.	[8gJ	に	.	[8gJ	に	.
=179	=179	=179	=179	=179	=179	=179	=179	=179	=179	=179	=179	=179	=179	=179	=179	=179	=179	=179
1r	.	4.C	.	1g	.	.	1cc	.	.	1ee-	.	.	1g]	ー	.	1g]	ー	.
.	.	[8c	.	.	.	.	.	.	.	.	.	.	.	.	.	.	.	.
.	.	8cL]	.	.	.	.	.	.	.	.	.	.	.	.	.	.	.	.
.	.	8c	.	.	.	.	.	.	.	.	.	.	.	.	.	.	.	.
.	.	8B-	.	.	.	.	.	.	.	.	.	.	.	.	.	.	.	.
.	.	8GJ	.	.	.	.	.	.	.	.	.	.	.	.	.	.	.	.
=180	=180	=180	=180	=180	=180	=180	=180	=180	=180	=180	=180	=180	=180	=180	=180	=180	=180	=180
1r	.	8E-L	.	8gL	.	.	4r	.	.	8b-L	.	.	4r	.	.	4r	.	.
.	.	8E-	.	8g	.	.	.	.	.	8b-	.	.	.	.	.	.	.	.
.	.	8E-	.	8g	.	.	4b-	.	.	8b-	.	.	4g	いつ	.	4g	いつ	.
.	.	8E-J	.	8gJ	.	.	.	.	.	8b-J	.	.	.	.	.	.	.	.
.	.	8E-L	.	8gL	.	.	4a-	.	.	8b-L	.	.	4f	だっ	.	4f	だっ	.
.	.	8E-	.	8g	.	.	.	.	.	8b-	.	.	.	.	.	.	.	.
.	.	8E-	.	8g	.	.	4g	.	.	8b-	.	.	4e-	て	.	4e-	て	.
.	.	8E-J	.	8gJ	.	.	.	.	.	8b-J	.	.	.	.	.	.	.	.
=181	=181	=181	=181	=181	=181	=181	=181	=181	=181	=181	=181	=181	=181	=181	=181	=181	=181	=181
1r	.	4AA-	.	4A-	.	.	8e-L	.	.	4e-	.	.	8cL	目	.	8cL	目	.
.	.	.	.	.	.	.	8e-	.	.	.	.	.	8c	を	.	8c	を	.
.	.	8AA-L	.	8A-L	.	.	8b-	.	.	8e-L	.	.	8g	腫	.	8g	腫	.
.	.	[8AA-J	.	[8A-J	.	.	[8a-J	.	.	[8e-J	.	.	[8fJ	らし	.	[8fJ	らし	.
.	.	8AA-L]	.	8A-L]	.	.	8a-]	.	.	8e-L]	.	.	8f]	.	.	8f]	.	.
.	.	8AA-	.	8A-	.	.	4g	.	.	8e-	.	.	4e-	た	.	4e-	た	.
.	.	8AA-	.	8A-	.	.	.	.	.	8e-	.	.	.	.	.	.	.	.
.	.	8AA-J	.	8A-J	.	.	[8f	.	.	8e-J	.	.	[8d	き	.	[8d	き	.
=182	=182	=182	=182	=182	=182	=182	=182	=182	=182	=182	=182	=182	=182	=182	=182	=182	=182	=182
1r	.	4BB-	.	4B-	.	.	8fL]	.	.	4f	.	.	8dL]	.	.	8dL]	.	.
.	.	.	.	.	.	.	8g	.	.	.	.	.	8e-	み	.	8e-	み	.
.	.	8BB-L	.	8B-L	.	.	8f	.	.	8fL	.	.	8d	が	.	8d	が	.
.	.	[8BB-J	.	[8B-J	.	.	8e-J	.	.	[8fJ	.	.	8cJ	二	.	8cJ	二	.
.	.	8BB-L]	.	8B-L]	.	.	8e-L	.	.	8fL]	.	.	8cL	度	.	8cL	度	.
.	.	8BB-	.	8B-	.	.	8dJ	.	.	8f	.	.	8B-J	と	.	8B-J	と	.
.	.	8BB-	.	8B-	.	.	4r	.	.	8f	.	.	8r	.	.	8r	.	.
.	.	8BB-J	.	8B-J	.	.	.	.	.	8fJ	.	.	[8e-	か	.	[8e-	か	.
=183	=183	=183	=183	=183	=183	=183	=183	=183	=183	=183	=183	=183	=183	=183	=183	=183	=183	=183
1r	.	4C	.	4c	.	.	1r	.	.	4g	.	.	8e-L]	.	.	8e-L]	.	.
.	.	.	.	.	.	.	.	.	.	.	.	.	8d	な	.	8d	な	.
.	.	8CL	.	8cL	.	.	.	.	.	8gL	.	.	8B-	し	.	8B-	し	.
.	.	[8CJ	.	[8cJ	.	.	.	.	.	[8gJ	.	.	[8cJ	ま	.	[8cJ	ま	.
.	.	8CL]	.	8cL]	.	.	.	.	.	8gL]	.	.	8cL]	.	.	8cL]	.	.
.	.	8C	.	8c	.	.	.	.	.	8g	.	.	8B-	な	.	8B-	な	.
.	.	8C	.	8c	.	.	.	.	.	8g	.	.	8A-	い	.	8A-	い	.
.	.	8CJ	.	8cJ	.	.	.	.	.	8gJ	.	.	8GJ	よ	.	8GJ	よ	.
=184	=184	=184	=184	=184	=184	=184	=184	=184	=184	=184	=184	=184	=184	=184	=184	=184	=184	=184
1r	.	4E-	.	4e-	.	.	1r	.	.	4b-	.	.	8GL	う	.	8GL	う	.
.	.	.	.	.	.	.	.	.	.	.	.	.	8A-	に	.	8A-	に	.
.	.	8E-L	.	8e-L	.	.	.	.	.	8b-L	.	.	8B-	わ	.	8B-	わ	.
.	.	[8E-J	.	[8e-J	.	.	.	.	.	[8b-J	.	.	[8fJ	ら	.	[8fJ	ら	.
.	.	8E-L]	.	8e-L]	.	.	.	.	.	8b-L]	.	.	8fL]	え	.	8fL]	え	.
.	.	8E-	.	8e-	.	.	.	.	.	8b-	.	.	8e-J	る	.	8e-J	る	.
.	.	8E-	.	8e-	.	.	.	.	.	8b-	.	.	4r	.	.	4r	.	.
.	.	8E-J	.	8e-J	.	.	.	.	.	8b-J	.	.	.	.	.	.	.	.
=185	=185	=185	=185	=185	=185	=185	=185	=185	=185	=185	=185	=185	=185	=185	=185	=185	=185	=185
1r	.	4AA-	.	1e-	.	.	1g	.	.	1cc	.	.	4c	そん	.	4c	そん	.
.	.	8AA-L	.	.	.	.	.	.	.	.	.	.	8gL	な	.	8gL	な	.
.	.	[8AA-J	.	.	.	.	.	.	.	.	.	.	[8fJ	ヒー	.	[8fJ	ヒー	.
.	.	8AA-L]	.	.	.	.	.	.	.	.	.	.	8f]	.	.	8f]	.	.
.	.	8AA-	.	.	.	.	.	.	.	.	.	.	4e-	ロー	.	4e-	ロー	.
.	.	8AA-	.	.	.	.	.	.	.	.	.	.	.	.	.	.	.	.
.	.	8AA-J	.	.	.	.	.	.	.	.	.	.	[8a-	に	.	[8a-	に	.
=186	=186	=186	=186	=186	=186	=186	=186	=186	=186	=186	=186	=186	=186	=186	=186	=186	=186	=186
1r	.	4BBn	.	1f	.	.	1bn	.	.	1dd	.	.	8a-L]	.	.	8a-L]	.	.
.	.	.	.	.	.	.	.	.	.	.	.	.	8g	な	.	8g	な	.
.	.	8BBL	.	.	.	.	.	.	.	.	.	.	8f	る	.	8f	る	.
.	.	[8BBJ	.	.	.	.	.	.	.	.	.	.	8e-J	た	.	8e-J	た	.
.	.	8BBL]	.	.	.	.	.	.	.	.	.	.	8dL	め	.	8dL	め	.
.	.	8BB	.	.	.	.	.	.	.	.	.	.	8c	の	.	8c	の	.
.	.	8BB	.	.	.	.	.	.	.	.	.	.	8d	う	.	8d	う	.
.	.	8BBJ	.	.	.	.	.	.	.	.	.	.	[8e-J	た	.	[8e-J	た	.
=187	=187	=187	=187	=187	=187	=187	=187	=187	=187	=187	=187	=187	=187	=187	=187	=187	=187	=187
1r	.	4C	.	1c	.	.	1g	.	.	1cc	.	.	1e-]	ー	.	1e-]	ー	.
.	.	8CL	.	.	.	.	.	.	.	.	.	.	.	.	.	.	.	.
.	.	[8CJ	.	.	.	.	.	.	.	.	.	.	.	.	.	.	.	.
.	.	8CL]	.	.	.	.	.	.	.	.	.	.	.	.	.	.	.	.
.	.	8C	.	.	.	.	.	.	.	.	.	.	.	.	.	.	.	.
.	.	8C	.	.	.	.	.	.	.	.	.	.	.	.	.	.	.	.
.	.	8CJ	.	.	.	.	.	.	.	.	.	.	.	.	.	.	.	.
=188	=188	=188	=188	=188	=188	=188	=188	=188	=188	=188	=188	=188	=188	=188	=188	=188	=188	=188
1r	.	4E-	.	2r	.	.	4g	.	.	4b-	.	.	2r	.	.	2r	.	.
.	.	8E-L	.	.	.	.	8gL	.	.	8b-L	.	.	.	.	.	.	.	.
.	.	8E-J	.	.	.	.	8gJ	.	.	8b-J	.	.	.	.	.	.	.	.
.	.	8E-L	.	4r	.	.	8gL	.	.	8b-L	.	.	4r	.	.	4r	.	.
.	.	8E-J	.	.	.	.	8gJ	.	.	8b-J	.	.	.	.	.	.	.	.
.	.	4E-	.	8e-L	.	.	4g	.	.	4b-	.	.	8e-L	さ	.	8e-L	さ	.
.	.	.	.	8dJ	.	.	.	.	.	.	.	.	8dJ	ら	.	8dJ	ら	.
=189	=189	=189	=189	=189	=189	=189	=189	=189	=189	=189	=189	=189	=189	=189	=189	=189	=189	=189
1r	.	8AA-L	.	[8cL	.	.	8e-L	.	.	8ccL	.	.	[8cL	ば	.	[8cL	ば	.
.	.	8AA-J	.	8c]	.	.	8e-J	.	.	8ccJ	.	.	8c]	.	.	8c]	.	.
.	.	8r	.	8g	.	.	8r	.	.	8r	.	.	8e-	か	.	8e-	か	.
.	.	[8BB-	.	[8fJ	.	.	[8f	.	.	[8dd	.	.	[8dJ	か	.	[8dJ	か	.
.	.	8BB-L]	.	8fL]	.	.	8fL]	.	.	8ddL]	.	.	8dL]	.	.	8dL]	.	.
.	.	8BB-J	.	8g	.	.	8fJ	.	.	8ddJ	.	.	8e-	げ	.	8e-	げ	.
.	.	4BB-	.	8a-	.	.	4f	.	.	4dd	.	.	8f	ろ	.	8f	ろ	.
.	.	.	.	[8a-J	.	.	.	.	.	.	.	.	[8fJ	ピー	.	[8fJ	ピー	.
=190	=190	=190	=190	=190	=190	=190	=190	=190	=190	=190	=190	=190	=190	=190	=190	=190	=190	=190
1r	.	8GGL	.	4a-]	.	.	8dL	.	.	8bnL	.	.	4f]	ス	.	4f]	ス	.
.	.	8GGJ	.	.	.	.	8dJ	.	.	8bJ	.	.	.	.	.	.	.	.
.	.	8r	.	8b-L	.	.	8r	.	.	8r	.	.	8gL	サ	.	8gL	サ	.
.	.	[8C	.	[8gJ	.	.	[8g	.	.	[8ee-	.	.	[8e-J	イン	.	[8e-J	イン	.
.	.	8CL]	.	4g]	.	.	8gL]	.	.	8ee-L]	.	.	4e-]	.	.	4e-]	.	.
.	.	8CJ	.	.	.	.	8gJ	.	.	8ee-J	.	.	.	.	.	.	.	.
.	.	4C	.	8gL	.	.	4g	.	.	4ee-	.	.	8e-L	こ	.	8e-L	こ	.
.	.	.	.	8fJ	.	.	.	.	.	.	.	.	8dJ	ろ	.	8dJ	ろ	.
=191	=191	=191	=191	=191	=191	=191	=191	=191	=191	=191	=191	=191	=191	=191	=191	=191	=191	=191
1r	.	8BBnL	.	4g	.	.	8fL	.	.	8ee-L	.	.	4e-	がっ	.	4e-	がっ	.
.	.	8BBJ	.	.	.	.	8fJ	.	.	8ee-J	.	.	.	.	.	.	.	.
.	.	8r	.	8e-L	.	.	8r	.	.	8r	.	.	8B-L	て	.	8B-L	て	.
.	.	[8D-X	.	[8fJ	.	.	[8a-	.	.	[8ff	.	.	[8d-XJ	く	.	[8d-XJ	く	.
.	.	8D-L]	.	8f]	.	.	8a-L]	.	.	8ffL]	.	.	8d-]	ー	.	8d-]	ー	.
.	.	8D-J	.	4cc	.	.	8a-J	.	.	8ffJ	.	.	4a-	ストー	.	4a-	ストー	.
.	.	4D-	.	.	.	.	4a-	.	.	4ff	.	.	.	.	.	.	.	.
.	.	.	.	[8b-	.	.	.	.	.	.	.	.	[8g	リー	.	[8g	リー	.
=192	=192	=192	=192	=192	=192	=192	=192	=192	=192	=192	=192	=192	=192	=192	=192	=192	=192	=192
2r	.	4E-	.	8b-]	.	.	4b-	.	.	4ee-	.	.	8g]	.	.	8g]	.	.
.	.	.	.	4.g	.	.	.	.	.	.	.	.	4.e-	を	.	4.e-	を	.
.	.	4E-	.	.	.	.	4b-	.	.	4ee-	.	.	.	.	.	.	.	.
4r	.	8E-L	.	4r	.	.	8b-L	.	.	8ee-L	.	.	4r	.	.	4r	.	.
.	.	8E-	.	.	.	.	8b-	.	.	8ee-	.	.	.	.	.	.	.	.
8B-L	.	8E-	.	8e-L	.	.	8b-	.	.	8b-	.	.	8e-L	き	.	8e-L	き	.
8AnJ	.	8DJ	.	8dJ	.	.	8anJ	.	.	8anJ	.	.	8dJ	み	.	8dJ	み	.
=193	=193	=193	=193	=193	=193	=193	=193	=193	=193	=193	=193	=193	=193	=193	=193	=193	=193	=193
4G	.	4C	.	4c	.	.	4g	.	.	4g	.	.	4c	と	.	4c	と	.
8B-L	.	8E-L	.	8e-L	.	.	8b-L	.	.	8b-L	.	.	8e-L	未	.	8e-L	未	.
[8AnJ	.	[8DJ	.	[8dJ	.	.	[8anJ	.	.	[8anJ	.	.	[8dJ	来	.	[8dJ	来	.
8AL]	.	8DL]	.	8dL]	.	.	8aL]	.	.	8aL]	.	.	8dL]	.	.	8dL]	.	.
8B-	.	8E-	.	8e-	.	.	8b-	.	.	8b-	.	.	8e-	を	.	8e-	を	.
8c	.	8F	.	8f	.	.	8cc	.	.	8cc	.	.	8f	ぬ	.	8f	ぬ	.
8cJ	.	8FJ	.	8fJ	.	.	8ccJ	.	.	8ccJ	.	.	8fJ	す	.	8fJ	す	.
=194	=194	=194	=194	=194	=194	=194	=194	=194	=194	=194	=194	=194	=194	=194	=194	=194	=194	=194
8cL	.	8FL	.	8fL	.	.	8ccL	.	.	8ccL	.	.	8fL	み	.	8fL	み	.
8c	.	8F	.	8f	.	.	8cc	.	.	8cc	.	.	8f	え	.	8f	え	.
8d	.	8G	.	8g	.	.	8dd	.	.	8dd	.	.	8g	が	.	8g	が	.
8B-J	.	8E-J	.	8e-J	.	.	8b-J	.	.	8b-J	.	.	8e-J	く	.	8e-J	く	.
4r	.	4r	.	4r	.	.	4r	.	.	4r	.	.	4r	.	.	4r	.	.
8B-L	.	8E-L	.	8e-L	.	.	8b-L	.	.	8b-L	.	.	8e-L	ひ	.	8e-L	ひ	.
8AnJ	.	8DJ	.	8dJ	.	.	8anJ	.	.	8anJ	.	.	8dJ	ね	.	8dJ	ね	.
=195	=195	=195	=195	=195	=195	=195	=195	=195	=195	=195	=195	=195	=195	=195	=195	=195	=195	=195
4B-	.	4E-	.	4e-	.	.	4b-	.	.	4b-	.	.	4e-	り	.	4e-	り	.
8G-XL	.	8BBnL	.	8BnL	.	.	8g-XL	.	.	8g-XL	.	.	8BnL	の	.	8BnL	の	.
[8A-J	.	[8D-XJ	.	[8d-XJ	.	.	[8a-J	.	.	[8a-J	.	.	[8d-XJ	ない	.	[8d-XJ	ない	.
8A-]	.	8D-]	.	8d-]	.	.	8a-]	.	.	8a-]	.	.	8d-]	.	.	8d-]	.	.
4e-	.	4A-	.	4a-	.	.	4ee-	.	.	4ee-	.	.	4a-	ストー	.	4a-	ストー	.
[8d	.	[8G	.	[8g	.	.	[8dd	.	.	[8dd	.	.	[8g	リー	.	[8g	リー	.
=196	=196	=196	=196	=196	=196	=196	=196	=196	=196	=196	=196	=196	=196	=196	=196	=196	=196	=196
8d]	.	8G]	.	8g]	.	.	8dd]	.	.	8dd]	.	.	8g]	.	.	8g]	.	.
4.B-	.	4.E-	.	4.e-	.	.	4.b-	.	.	4.b-	.	.	[2e-	を	.	[2e-	を	.
8B-L	.	8B-L	.	8e-L	.	.	8b-L	.	.	8ee-L	.	.	.	.	.	.	.	.
8B-J	.	8B-J	.	8e-J	.	.	8b-J	.	.	8ee-J	.	.	8e-]	.	.	8e-]	.	.
4r	.	4r	.	4r	.	.	4r	.	.	4r	.	.	4r	.	.	4r	.	.
=197	=197	=197	=197	=197	=197	=197	=197	=197	=197	=197	=197	=197	=197	=197	=197	=197	=197	=197
1r	.	1r	.	1r	.	.	1r	.	.	1r	.	.	1r	.	.	1r	.	.
=	=	=	=	=	=	=	=	=	=	=	=	=	=	=	=	=	=	=
*-	*-	*-	*-	*-	*-	*-	*-	*-	*-	*-	*-	*-	*-	*-	*-	*-	*-	*-
